;FLAVOR:Marlin
;TIME:1120
;Filament used: 0.416619m
;Layer height: 0.2
;MINX:101.5
;MINY:101.5
;MINZ:0.2
;MAXX:133.5
;MAXY:133.5
;MAXZ:20
;Generated with Cura_SteamEngine 5.0.0
M140 S50
M105
M190 S50
M104 S200
M105
M109 S200
M82 ;absolute extrusion mode
; Ender 3 Custom Start G-code
G92 E0 ; Reset Extruder
G28 ; Home all axes
G1 Z2.0 F3000 ; Move Z Axis up little to prevent scratching of Heat Bed
G1 X0.1 Y20 Z0.3 F5000.0 ; Move to start position
G1 X0.1 Y200.0 Z0.3 F1500.0 E15 ; Draw the first line
G1 X0.4 Y200.0 Z0.3 F5000.0 ; Move to side a little
G1 X0.4 Y20 Z0.3 F1500.0 E30 ; Draw the second line
G92 E0 ; Reset Extruder
G1 Z2.0 F3000 ; Move Z Axis up little to prevent scratching of Heat Bed
G1 X5 Y20 Z0.3 F5000.0 ; Move over to prevent blob squish
G92 E0
G92 E0
G1 F2700 E-5
;LAYER_COUNT:100
;LAYER:0
M107
G0 F6000 X104.698 Y104.764 Z0.2
G0 X101.501 Y113.025
;TYPE:SKIRT
G1 F2700 E0
G1 F1200 X101.51 Y112.36 E0.02212
G1 X101.563 Y111.424 E0.0533
G1 X101.695 Y110.495 E0.08451
G1 X101.906 Y109.581 E0.11571
G1 X102.194 Y108.689 E0.14689
G1 X102.557 Y107.824 E0.17809
G1 X102.992 Y106.993 E0.20928
G1 X103.496 Y106.203 E0.24045
G1 X104.066 Y105.458 E0.27165
G1 X104.698 Y104.764 E0.30287
G1 X105.386 Y104.127 E0.33405
G1 X106.126 Y103.551 E0.36524
G1 X106.912 Y103.039 E0.39644
G1 X107.739 Y102.597 E0.42763
G1 X108.601 Y102.227 E0.45883
G1 X109.491 Y101.931 E0.49003
G1 X110.403 Y101.713 E0.52122
G1 X111.33 Y101.572 E0.5524
G1 X112.201 Y101.513 E0.58144
G1 X112.83 Y101.5 E0.60236
G1 X121.793 Y101.5 E0.90047
G1 X122.649 Y101.511 E0.92895
G1 X123.585 Y101.565 E0.96013
G1 X124.513 Y101.697 E0.99131
G1 X125.427 Y101.909 E1.02251
G1 X126.319 Y102.198 E1.0537
G1 X127.184 Y102.561 E1.0849
G1 X128.014 Y102.997 E1.11608
G1 X128.805 Y103.502 E1.1473
G1 X129.549 Y104.073 E1.17849
G1 X130.242 Y104.705 E1.20968
G1 X130.879 Y105.393 E1.24087
G1 X131.454 Y106.134 E1.27207
G1 X131.965 Y106.92 E1.30325
G1 X132.407 Y107.748 E1.33446
G1 X132.776 Y108.61 E1.36565
G1 X133.071 Y109.5 E1.39684
G1 X133.289 Y110.412 E1.42802
G1 X133.429 Y111.34 E1.45924
G1 X133.487 Y112.201 E1.48794
G1 X133.5 Y112.83 E1.50887
G1 X133.499 Y121.9 E1.81054
G1 X133.49 Y122.627 E1.83472
G1 X133.439 Y123.564 E1.86593
G1 X133.307 Y124.492 E1.8971
G1 X133.098 Y125.406 E1.92829
G1 X132.811 Y126.299 E1.95949
G1 X132.449 Y127.165 E1.9907
G1 X132.015 Y127.996 E2.02189
G1 X131.511 Y128.787 E2.05308
G1 X130.942 Y129.532 E2.08426
G1 X130.311 Y130.227 E2.11548
G1 X129.624 Y130.865 E2.14667
G1 X128.885 Y131.442 E2.17785
G1 X128.099 Y131.954 E2.20905
G1 X127.273 Y132.397 E2.24022
G1 X126.411 Y132.769 E2.27145
G1 X125.522 Y133.065 E2.30261
G1 X124.61 Y133.285 E2.33382
G1 X123.683 Y133.426 E2.365
G1 X122.799 Y133.487 E2.39448
G1 X122.17 Y133.5 E2.4154
G1 X113.065 Y133.499 E2.71824
G1 X112.367 Y133.49 E2.74145
G1 X111.431 Y133.438 E2.77263
G1 X110.502 Y133.306 E2.80384
G1 X109.588 Y133.096 E2.83503
G1 X108.695 Y132.809 E2.86623
G1 X107.83 Y132.446 E2.89743
G1 X106.999 Y132.012 E2.92861
G1 X106.208 Y131.508 E2.95981
G1 X105.463 Y130.938 E2.99101
G1 X104.769 Y130.307 E3.0222
G1 X104.132 Y129.62 E3.05337
G1 X103.555 Y128.88 E3.08458
G1 X103.043 Y128.094 E3.11578
G1 X102.6 Y127.267 E3.14698
G1 X102.229 Y126.406 E3.17816
G1 X101.933 Y125.516 E3.20936
G1 X101.714 Y124.604 E3.24055
G1 X101.573 Y123.677 E3.27174
G1 X101.513 Y122.788 E3.30138
G1 X101.5 Y122.158 E3.32233
G1 X101.501 Y113.025 E3.6261
G0 F6000 X101.901 Y113.031
G1 F1200 X101.91 Y112.366 E3.64822
G1 X101.962 Y111.446 E3.67887
G1 X102.094 Y110.535 E3.70948
G1 X102.305 Y109.639 E3.7401
G1 X102.592 Y108.764 E3.77073
G1 X102.955 Y107.918 E3.80135
G1 X103.389 Y107.106 E3.83197
G1 X103.892 Y106.335 E3.86259
G1 X104.461 Y105.611 E3.89321
G1 X105.089 Y104.939 E3.92381
G1 X105.774 Y104.323 E3.95445
G1 X106.51 Y103.77 E3.98507
G1 X107.291 Y103.282 E4.0157
G1 X108.111 Y102.864 E4.04631
G1 X108.965 Y102.519 E4.07694
G1 X109.845 Y102.249 E4.10756
G1 X110.745 Y102.057 E4.13817
G1 X111.659 Y101.943 E4.1688
G1 X112.212 Y101.913 E4.18722
G1 X112.83 Y101.9 E4.20778
G1 X121.793 Y101.9 E4.50589
G1 X122.643 Y101.911 E4.53416
G1 X123.562 Y101.964 E4.56478
G1 X124.473 Y102.097 E4.5954
G1 X125.369 Y102.308 E4.62602
G1 X126.243 Y102.596 E4.65663
G1 X127.09 Y102.959 E4.68728
G1 X127.901 Y103.394 E4.71788
G1 X128.671 Y103.898 E4.74849
G1 X129.395 Y104.467 E4.77912
G1 X130.067 Y105.097 E4.80976
G1 X130.682 Y105.782 E4.84038
G1 X131.235 Y106.518 E4.87099
G1 X131.722 Y107.299 E4.90161
G1 X132.139 Y108.12 E4.93223
G1 X132.484 Y108.974 E4.96287
G1 X132.753 Y109.854 E4.99347
G1 X132.945 Y110.755 E5.02411
G1 X133.058 Y111.668 E5.05471
G1 X133.096 Y112.532 E5.08348
G1 X133.099 Y121.895 E5.39489
G1 X133.09 Y122.622 E5.41907
G1 X133.039 Y123.541 E5.44969
G1 X132.908 Y124.453 E5.48033
G1 X132.698 Y125.349 E5.51094
G1 X132.412 Y126.224 E5.54156
G1 X132.051 Y127.071 E5.57218
G1 X131.617 Y127.883 E5.6028
G1 X131.115 Y128.655 E5.63343
G1 X130.547 Y129.38 E5.66407
G1 X129.919 Y130.053 E5.69468
G1 X129.235 Y130.669 E5.7253
G1 X128.5 Y131.223 E5.75591
G1 X127.72 Y131.712 E5.78653
G1 X126.9 Y132.131 E5.81716
G1 X126.047 Y132.477 E5.84777
G1 X125.167 Y132.748 E5.8784
G1 X124.267 Y132.941 E5.90901
G1 X123.353 Y133.056 E5.93965
G1 X122.788 Y133.087 E5.95847
G1 X122.17 Y133.1 E5.97903
G1 X113.07 Y133.099 E6.2817
G1 X112.372 Y133.09 E6.30492
G1 X111.453 Y133.038 E6.33553
G1 X110.542 Y132.907 E6.36614
G1 X109.646 Y132.697 E6.39675
G1 X108.771 Y132.41 E6.42738
G1 X107.924 Y132.048 E6.45802
G1 X107.112 Y131.614 E6.48864
G1 X106.341 Y131.112 E6.51924
G1 X105.616 Y130.544 E6.54987
G1 X104.943 Y129.915 E6.58051
G1 X104.328 Y129.231 E6.6111
G1 X103.774 Y128.496 E6.64172
G1 X103.286 Y127.715 E6.67235
G1 X102.867 Y126.895 E6.70297
G1 X102.521 Y126.042 E6.73359
G1 X102.251 Y125.162 E6.76421
G1 X102.058 Y124.261 E6.79485
G1 X101.944 Y123.348 E6.82546
G1 X101.913 Y122.777 E6.84447
G1 X101.9 Y122.158 E6.86507
G1 X101.901 Y113.031 E7.16863
G0 F6000 X102.301 Y113.036
G1 F1200 X102.31 Y112.371 E7.19075
G1 X102.362 Y111.469 E7.2208
G1 X102.494 Y110.576 E7.25083
G1 X102.704 Y109.698 E7.28085
G1 X102.991 Y108.841 E7.31091
G1 X103.353 Y108.014 E7.34094
G1 X103.786 Y107.222 E7.37096
G1 X104.288 Y106.471 E7.40101
G1 X104.855 Y105.767 E7.43107
G1 X105.481 Y105.117 E7.46109
G1 X106.162 Y104.524 E7.49112
G1 X106.894 Y103.994 E7.52118
G1 X107.669 Y103.531 E7.5512
G1 X108.482 Y103.138 E7.58124
G1 X109.327 Y102.818 E7.61129
G1 X110.196 Y102.575 E7.6413
G1 X111.084 Y102.409 E7.67135
G1 X112.223 Y102.313 E7.70937
G1 X112.83 Y102.3 E7.72956
G1 X121.793 Y102.3 E8.02767
G1 X122.637 Y102.311 E8.05574
G1 X123.539 Y102.364 E8.0858
G1 X124.432 Y102.496 E8.11582
G1 X125.31 Y102.707 E8.14586
G1 X126.166 Y102.995 E8.17589
G1 X126.993 Y103.357 E8.20592
G1 X127.785 Y103.792 E8.23597
G1 X128.536 Y104.294 E8.26602
G1 X129.239 Y104.861 E8.29606
G1 X129.889 Y105.488 E8.3261
G1 X130.481 Y106.17 E8.35613
G1 X131.011 Y106.901 E8.38616
G1 X131.473 Y107.677 E8.4162
G1 X131.866 Y108.49 E8.44624
G1 X132.184 Y109.335 E8.47626
G1 X132.427 Y110.205 E8.50631
G1 X132.592 Y111.093 E8.53635
G1 X132.687 Y112.223 E8.57407
G1 X132.7 Y112.83 E8.59426
G1 X132.699 Y121.89 E8.8956
G1 X132.69 Y122.617 E8.91978
G1 X132.639 Y123.519 E8.94983
G1 X132.508 Y124.413 E8.97988
G1 X132.299 Y125.291 E9.0099
G1 X132.013 Y126.148 E9.03995
G1 X131.652 Y126.976 E9.06999
G1 X131.22 Y127.768 E9.1
G1 X130.719 Y128.52 E9.13005
G1 X130.153 Y129.224 E9.16009
G1 X129.528 Y129.875 E9.19011
G1 X128.847 Y130.469 E9.22017
G1 X128.116 Y131 E9.25022
G1 X127.342 Y131.464 E9.28023
G1 X126.529 Y131.858 E9.31028
G1 X125.685 Y132.178 E9.3403
G1 X124.815 Y132.423 E9.37036
G1 X123.928 Y132.589 E9.40038
G1 X122.777 Y132.687 E9.4388
G1 X122.17 Y132.7 E9.45899
G1 X113.075 Y132.699 E9.76149
G1 X112.377 Y132.69 E9.78471
G1 X111.476 Y132.639 E9.81472
G1 X110.582 Y132.507 E9.84478
G1 X109.704 Y132.298 E9.8748
G1 X108.847 Y132.011 E9.90486
G1 X108.02 Y131.65 E9.93487
G1 X107.227 Y131.217 E9.96492
G1 X106.476 Y130.716 E9.99495
G1 X105.772 Y130.15 E10.02499
G1 X105.121 Y129.524 E10.05503
G1 X104.528 Y128.843 E10.08507
G1 X103.998 Y128.112 E10.1151
G1 X103.534 Y127.337 E10.14514
G1 X103.14 Y126.524 E10.17519
G1 X102.82 Y125.68 E10.20521
G1 X102.576 Y124.81 E10.23526
G1 X102.41 Y123.922 E10.26531
G1 X102.313 Y122.767 E10.30386
G1 X102.3 Y122.158 E10.32412
G1 X102.301 Y113.036 E10.62752
G1 F2700 E5.62752
;MESH:3ZCuBk3JpDe (1).stl
G0 F6000 X111.835 Y113.036
G0 X112.93 Y113.036
G0 X113.08 Y121.92
G1 F2700 E10.62752
G0 F6000 X112.7 Y122.3
;TYPE:WALL-OUTER
G1 F1200 X122.3 Y122.3 E10.94682
G1 X122.3 Y112.7 E11.26612
G1 X112.7 Y112.7 E11.58541
G1 X112.7 Y122.3 E11.90471
G0 F6000 X113.1 Y121.9
;TYPE:WALL-INNER
G1 F1200 X121.9 Y121.9 E12.1974
G1 X121.9 Y113.1 E12.49009
G1 X113.1 Y113.1 E12.78278
G1 X113.1 Y121.9 E13.07547
G0 F6000 X113.46 Y121.54
;TYPE:SKIN
G1 F1200 X121.54 Y121.54 E13.34421
G1 X121.54 Y113.46 E13.61295
G1 X113.46 Y113.46 E13.88169
G1 X113.46 Y121.54 E14.15043
G0 F6000 X113.985 Y121.339
G1 F1200 X113.659 Y121.013 E14.16577
G0 F6000 X113.659 Y120.447
G1 F1200 X114.551 Y121.339 E14.20773
G0 F6000 X115.116 Y121.339
G1 F1200 X113.659 Y119.882 E14.27626
G0 F6000 X113.659 Y119.316
G1 F1200 X115.682 Y121.339 E14.37141
G0 F6000 X116.248 Y121.339
G1 F1200 X113.659 Y118.75 E14.49319
G0 F6000 X113.659 Y118.185
G1 F1200 X116.814 Y121.339 E14.64157
G0 F6000 X117.379 Y121.339
G1 F1200 X113.659 Y117.619 E14.81655
G0 F6000 X113.659 Y117.053
G1 F1200 X117.945 Y121.339 E15.01815
G0 F6000 X118.511 Y121.339
G1 F1200 X113.659 Y116.488 E15.24635
G0 F6000 X113.659 Y115.922
G1 F1200 X119.076 Y121.339 E15.50115
G0 F6000 X119.642 Y121.339
G1 F1200 X113.659 Y115.356 E15.78257
G0 F6000 X113.659 Y114.791
G1 F1200 X120.208 Y121.339 E16.09059
G0 F6000 X120.773 Y121.339
G1 F1200 X113.659 Y114.225 E16.42521
G0 F6000 X113.659 Y113.659
G1 F1200 X121.339 Y121.339 E16.78645
G0 F6000 X121.339 Y120.773
G1 F1200 X114.226 Y113.66 E17.12103
G0 F6000 X114.791 Y113.66
G1 F1200 X121.339 Y120.208 E17.42903
G0 F6000 X121.339 Y119.642
G1 F1200 X115.357 Y113.66 E17.7104
G0 F6000 X115.923 Y113.66
G1 F1200 X121.339 Y119.076 E17.96515
G0 F6000 X121.339 Y118.511
G1 F1200 X116.488 Y113.66 E18.19333
G0 F6000 X117.054 Y113.66
G1 F1200 X121.339 Y117.945 E18.39488
G0 F6000 X121.339 Y117.379
G1 F1200 X117.62 Y113.66 E18.56981
G0 F6000 X118.185 Y113.66
G1 F1200 X121.339 Y116.814 E18.71817
G0 F6000 X121.339 Y116.248
G1 F1200 X118.751 Y113.66 E18.8399
G0 F6000 X119.317 Y113.66
G1 F1200 X121.339 Y115.682 E18.93501
G0 F6000 X121.339 Y115.116
G1 F1200 X119.882 Y113.66 E19.00352
G0 F6000 X120.448 Y113.66
G1 F1200 X121.339 Y114.551 E19.04543
G0 F6000 X121.339 Y113.985
G1 F1200 X121.014 Y113.66 E19.06071
G1 F2700 E14.06071
;MESH:NONMESH
G0 F300 X121.014 Y113.66 Z0.4
G0 F6000 X121.014 Y113.2
G0 X113.272 Y113.272
G0 X113.08 Y121.92
G1 F2700 E19.06071
G0 F6000 X112.7 Y122.3
;TIME_ELAPSED:37.547097
;LAYER:1
M106 S85
;TYPE:WALL-OUTER
;MESH:3ZCuBk3JpDe (1).stl
G1 F1350 X122.3 Y122.3 E19.38001
G1 X122.3 Y112.7 E19.69931
G1 X112.7 Y112.7 E20.01861
G1 X112.7 Y122.3 E20.3379
G0 F7500 X113.1 Y121.9
;TYPE:WALL-INNER
G1 F1350 X121.9 Y121.9 E20.63059
G1 X121.9 Y113.1 E20.92328
G1 X113.1 Y113.1 E21.21597
G1 X113.1 Y121.9 E21.50866
G0 F7500 X113.46 Y121.54
;TYPE:SKIN
G1 F1350 X121.54 Y121.54 E21.7774
G1 X121.54 Y113.46 E22.04614
G1 X113.46 Y113.46 E22.31489
G1 X113.46 Y121.54 E22.58363
G0 F7500 X113.2 Y121.54
G0 X113.272 Y113.272
G0 X113.745 Y113.2
G0 X113.745 Y113.659
G1 F1350 X113.66 Y113.745 E22.58765
G0 F7500 X113.66 Y114.31
G1 F1350 X114.311 Y113.659 E22.61827
G0 F7500 X114.877 Y113.659
G1 F1350 X113.66 Y114.876 E22.67551
G0 F7500 X113.66 Y115.442
G1 F1350 X115.442 Y113.659 E22.75936
G0 F7500 X116.008 Y113.659
G1 F1350 X113.66 Y116.007 E22.8698
G0 F7500 X113.66 Y116.573
G1 F1350 X116.574 Y113.659 E23.00687
G0 F7500 X117.14 Y113.659
G1 F1350 X113.66 Y117.139 E23.17055
G0 F7500 X113.66 Y117.704
G1 F1350 X117.705 Y113.659 E23.36082
G0 F7500 X118.271 Y113.659
G1 F1350 X113.66 Y118.27 E23.57771
G0 F7500 X113.66 Y118.836
G1 F1350 X118.837 Y113.659 E23.82122
G0 F7500 X119.402 Y113.659
G1 F1350 X113.66 Y119.402 E24.09133
G0 F7500 X113.66 Y119.967
G1 F1350 X119.968 Y113.659 E24.38803
G0 F7500 X120.534 Y113.659
G1 F1350 X113.66 Y120.533 E24.71137
G0 F7500 X113.66 Y121.099
G1 F1350 X121.099 Y113.659 E25.0613
G0 F7500 X121.339 Y113.985
G1 F1350 X113.985 Y121.339 E25.40721
G0 F7500 X114.551 Y121.339
G1 F1350 X121.339 Y114.551 E25.72649
G0 F7500 X121.339 Y115.116
G1 F1350 X115.116 Y121.339 E26.01921
G0 F7500 X115.682 Y121.339
G1 F1350 X121.339 Y115.682 E26.28529
G0 F7500 X121.339 Y116.248
G1 F1350 X116.248 Y121.339 E26.52476
G0 F7500 X116.814 Y121.339
G1 F1350 X121.339 Y116.814 E26.7376
G0 F7500 X121.339 Y117.379
G1 F1350 X117.379 Y121.339 E26.92387
G0 F7500 X117.945 Y121.339
G1 F1350 X121.339 Y117.945 E27.08351
G0 F7500 X121.339 Y118.511
G1 F1350 X118.511 Y121.339 E27.21653
G0 F7500 X119.076 Y121.339
G1 F1350 X121.339 Y119.076 E27.32297
G0 F7500 X121.339 Y119.642
G1 F1350 X119.642 Y121.339 E27.4028
G0 F7500 X120.208 Y121.339
G1 F1350 X121.339 Y120.208 E27.456
G0 F7500 X121.339 Y120.773
G1 F1350 X120.773 Y121.339 E27.48262
G1 F2700 E22.48262
;MESH:NONMESH
G0 F300 X120.773 Y121.339 Z0.6
G0 F7500 X120.773 Y121.8
G0 X113.08 Y121.92
G1 F2700 E27.48262
G0 F7500 X112.7 Y122.3
;TIME_ELAPSED:52.223972
;LAYER:2
M106 S170
;TYPE:WALL-OUTER
;MESH:3ZCuBk3JpDe (1).stl
G1 F1500 X122.3 Y122.3 E27.80192
G1 X122.3 Y112.7 E28.12121
G1 X112.7 Y112.7 E28.44051
G1 X112.7 Y122.3 E28.75981
G0 F9000 X113.1 Y121.9
;TYPE:WALL-INNER
G1 F1500 X121.9 Y121.9 E29.0525
G1 X121.9 Y113.1 E29.34519
G1 X113.1 Y113.1 E29.63787
G1 X113.1 Y121.9 E29.93056
G0 F9000 X113.46 Y121.54
;TYPE:SKIN
G1 F1500 X121.54 Y121.54 E30.19931
G1 X121.54 Y113.46 E30.46805
G1 X113.46 Y113.46 E30.73679
G1 X113.46 Y121.54 E31.00553
G0 F9000 X113.985 Y121.339
G1 F1500 X113.659 Y121.013 E31.02087
G0 F9000 X113.659 Y120.447
G1 F1500 X114.551 Y121.339 E31.06282
G0 F9000 X115.116 Y121.339
G1 F1500 X113.659 Y119.882 E31.13136
G0 F9000 X113.659 Y119.316
G1 F1500 X115.682 Y121.339 E31.22651
G0 F9000 X116.248 Y121.339
G1 F1500 X113.659 Y118.75 E31.34829
G0 F9000 X113.659 Y118.185
G1 F1500 X116.814 Y121.339 E31.49667
G0 F9000 X117.379 Y121.339
G1 F1500 X113.659 Y117.619 E31.67165
G0 F9000 X113.659 Y117.053
G1 F1500 X117.945 Y121.339 E31.87325
G0 F9000 X118.511 Y121.339
G1 F1500 X113.659 Y116.488 E32.10145
G0 F9000 X113.659 Y115.922
G1 F1500 X119.076 Y121.339 E32.35624
G0 F9000 X119.642 Y121.339
G1 F1500 X113.659 Y115.356 E32.63767
G0 F9000 X113.659 Y114.791
G1 F1500 X120.208 Y121.339 E32.94569
G0 F9000 X120.773 Y121.339
G1 F1500 X113.659 Y114.225 E33.28031
G0 F9000 X113.659 Y113.659
G1 F1500 X121.339 Y121.339 E33.64155
G0 F9000 X121.339 Y120.773
G1 F1500 X114.226 Y113.66 E33.97613
G0 F9000 X114.791 Y113.66
G1 F1500 X121.339 Y120.208 E34.28412
G0 F9000 X121.339 Y119.642
G1 F1500 X115.357 Y113.66 E34.5655
G0 F9000 X115.923 Y113.66
G1 F1500 X121.339 Y119.076 E34.82025
G0 F9000 X121.339 Y118.511
G1 F1500 X116.488 Y113.66 E35.04843
G0 F9000 X117.054 Y113.66
G1 F1500 X121.339 Y117.945 E35.24998
G0 F9000 X121.339 Y117.379
G1 F1500 X117.62 Y113.66 E35.42491
G0 F9000 X118.185 Y113.66
G1 F1500 X121.339 Y116.814 E35.57326
G0 F9000 X121.339 Y116.248
G1 F1500 X118.751 Y113.66 E35.695
G0 F9000 X119.317 Y113.66
G1 F1500 X121.339 Y115.682 E35.79011
G0 F9000 X121.339 Y115.116
G1 F1500 X119.882 Y113.66 E35.85861
G0 F9000 X120.448 Y113.66
G1 F1500 X121.339 Y114.551 E35.90052
G0 F9000 X121.339 Y113.985
G1 F1500 X121.014 Y113.66 E35.91581
G1 F2700 E30.91581
;MESH:NONMESH
G0 F300 X121.014 Y113.66 Z0.8
G0 F9000 X121.014 Y113.2
G0 X113.272 Y113.272
G0 X113.08 Y121.92
G1 F2700 E35.91581
G0 F9000 X112.7 Y122.3
;TIME_ELAPSED:65.942658
;LAYER:3
M106 S255
;TYPE:WALL-OUTER
;MESH:3ZCuBk3JpDe (1).stl
G1 F1500 X122.3 Y122.3 E36.23511
G1 X122.3 Y112.7 E36.55441
G1 X112.7 Y112.7 E36.8737
G1 X112.7 Y122.3 E37.193
G0 F9000 X113.1 Y121.9
;TYPE:WALL-INNER
G1 F1500 X121.9 Y121.9 E37.48569
G1 X121.9 Y113.1 E37.77838
G1 X113.1 Y113.1 E38.07107
G1 X113.1 Y121.9 E38.36376
G0 F9000 X113.46 Y121.54
;TYPE:SKIN
G1 F1500 X121.54 Y121.54 E38.6325
