;FLAVOR:Marlin
;TIME:860
;Filament used: 0.296533m
;Layer height: 0.2
;MINX:102.5
;MINY:102.5
;MINZ:0.2
;MAXX:132.5
;MAXY:132.5
;MAXZ:20
;Generated with Cura_SteamEngine 5.0.0
M140 S50
M105
M190 S50
M104 S200
M105
M109 S200
M82 ;absolute extrusion mode
; Ender 3 Custom Start G-code
G92 E0 ; Reset Extruder
G28 ; Home all axes
G1 Z2.0 F3000 ; Move Z Axis up little to prevent scratching of Heat Bed
G1 X0.1 Y20 Z0.3 F5000.0 ; Move to start position
G1 X0.1 Y200.0 Z0.3 F1500.0 E15 ; Draw the first line
G1 X0.4 Y200.0 Z0.3 F5000.0 ; Move to side a little
G1 X0.4 Y20 Z0.3 F1500.0 E30 ; Draw the second line
G92 E0 ; Reset Extruder
G1 Z2.0 F3000 ; Move Z Axis up little to prevent scratching of Heat Bed
G1 X5 Y20 Z0.3 F5000.0 ; Move over to prevent blob squish
G92 E0
G92 E0
G1 F2700 E-5
;LAYER_COUNT:100
;LAYER:0
M107
G0 F6000 X105.698 Y105.764 Z0.2
G0 X102.501 Y114.025
;TYPE:SKIRT
G1 F2700 E0
G1 F1200 X102.51 Y113.36 E0.02212
G1 X102.563 Y112.424 E0.0533
G1 X102.695 Y111.495 E0.08451
G1 X102.906 Y110.581 E0.11571
G1 X103.194 Y109.689 E0.14689
G1 X103.557 Y108.824 E0.17809
G1 X103.992 Y107.993 E0.20928
G1 X104.496 Y107.203 E0.24045
G1 X105.066 Y106.458 E0.27165
G1 X105.698 Y105.764 E0.30287
G1 X106.386 Y105.127 E0.33405
G1 X107.126 Y104.551 E0.36524
G1 X107.912 Y104.039 E0.39644
G1 X108.739 Y103.597 E0.42763
G1 X109.601 Y103.227 E0.45883
G1 X110.491 Y102.931 E0.49003
G1 X111.403 Y102.713 E0.52122
G1 X112.33 Y102.572 E0.5524
G1 X113.201 Y102.513 E0.58144
G1 X113.83 Y102.5 E0.60236
G1 X120.793 Y102.5 E0.83395
G1 X121.649 Y102.511 E0.86243
G1 X122.585 Y102.565 E0.89361
G1 X123.513 Y102.697 E0.92479
G1 X124.427 Y102.909 E0.95599
G1 X125.319 Y103.198 E0.98718
G1 X126.184 Y103.561 E1.01838
G1 X127.014 Y103.997 E1.04956
G1 X127.805 Y104.502 E1.08078
G1 X128.549 Y105.073 E1.11197
G1 X129.242 Y105.705 E1.14316
G1 X129.879 Y106.393 E1.17435
G1 X130.454 Y107.134 E1.20555
G1 X130.965 Y107.92 E1.23673
G1 X131.407 Y108.748 E1.26794
G1 X131.776 Y109.61 E1.29913
G1 X132.071 Y110.5 E1.33032
G1 X132.289 Y111.412 E1.3615
G1 X132.429 Y112.34 E1.39272
G1 X132.487 Y113.201 E1.42142
G1 X132.5 Y113.83 E1.44235
G1 X132.499 Y120.9 E1.67749
G1 X132.49 Y121.627 E1.70168
G1 X132.439 Y122.564 E1.73289
G1 X132.307 Y123.492 E1.76406
G1 X132.098 Y124.406 E1.79525
G1 X131.811 Y125.299 E1.82645
G1 X131.449 Y126.165 E1.85766
G1 X131.015 Y126.996 E1.88885
G1 X130.511 Y127.787 E1.92004
G1 X129.942 Y128.532 E1.95122
G1 X129.311 Y129.227 E1.98244
G1 X128.624 Y129.865 E2.01363
G1 X127.885 Y130.442 E2.04481
G1 X127.099 Y130.954 E2.07601
G1 X126.273 Y131.397 E2.10718
G1 X125.411 Y131.769 E2.13841
G1 X124.522 Y132.065 E2.16957
G1 X123.61 Y132.285 E2.20078
G1 X122.683 Y132.426 E2.23196
G1 X121.799 Y132.487 E2.26144
G1 X121.17 Y132.5 E2.28236
G1 X114.065 Y132.499 E2.51867
G1 X113.367 Y132.49 E2.54189
G1 X112.431 Y132.438 E2.57307
G1 X111.502 Y132.306 E2.60428
G1 X110.588 Y132.096 E2.63547
G1 X109.695 Y131.809 E2.66667
G1 X108.83 Y131.446 E2.69787
G1 X107.999 Y131.012 E2.72905
G1 X107.208 Y130.508 E2.76025
G1 X106.463 Y129.938 E2.79145
G1 X105.769 Y129.307 E2.82264
G1 X105.132 Y128.62 E2.8538
G1 X104.555 Y127.88 E2.88501
G1 X104.043 Y127.094 E2.91621
G1 X103.6 Y126.267 E2.94742
G1 X103.229 Y125.406 E2.9786
G1 X102.933 Y124.516 E3.0098
G1 X102.714 Y123.604 E3.04099
G1 X102.573 Y122.677 E3.07218
G1 X102.513 Y121.788 E3.10181
G1 X102.5 Y121.158 E3.12277
G1 X102.501 Y114.025 E3.36002
G0 F6000 X102.901 Y114.031
G1 F1200 X102.91 Y113.366 E3.38214
G1 X102.962 Y112.446 E3.41279
G1 X103.094 Y111.535 E3.4434
G1 X103.305 Y110.639 E3.47402
G1 X103.592 Y109.764 E3.50465
G1 X103.955 Y108.918 E3.53527
G1 X104.389 Y108.106 E3.56589
G1 X104.892 Y107.335 E3.59651
G1 X105.461 Y106.611 E3.62713
G1 X106.089 Y105.939 E3.65772
G1 X106.774 Y105.323 E3.68837
G1 X107.51 Y104.77 E3.71898
G1 X108.291 Y104.282 E3.74961
G1 X109.111 Y103.864 E3.78023
G1 X109.965 Y103.519 E3.81086
G1 X110.845 Y103.249 E3.84148
G1 X111.745 Y103.057 E3.87208
G1 X112.659 Y102.943 E3.90272
G1 X113.212 Y102.913 E3.92114
G1 X113.83 Y102.9 E3.9417
G1 X120.793 Y102.9 E4.17329
G1 X121.643 Y102.911 E4.20156
G1 X122.562 Y102.964 E4.23218
G1 X123.473 Y103.097 E4.2628
G1 X124.369 Y103.308 E4.29342
G1 X125.243 Y103.596 E4.32402
G1 X126.09 Y103.959 E4.35467
G1 X126.901 Y104.394 E4.38528
G1 X127.671 Y104.898 E4.41589
G1 X128.395 Y105.467 E4.44652
G1 X129.067 Y106.097 E4.47716
G1 X129.682 Y106.782 E4.50777
G1 X130.235 Y107.518 E4.53839
G1 X130.722 Y108.299 E4.56901
G1 X131.139 Y109.12 E4.59963
G1 X131.484 Y109.974 E4.63027
G1 X131.753 Y110.854 E4.66087
G1 X131.945 Y111.755 E4.69151
G1 X132.058 Y112.668 E4.72211
G1 X132.096 Y113.532 E4.75088
G1 X132.099 Y120.895 E4.99577
G1 X132.09 Y121.622 E5.01995
G1 X132.039 Y122.541 E5.05057
G1 X131.908 Y123.453 E5.08121
G1 X131.698 Y124.349 E5.11182
G1 X131.412 Y125.224 E5.14244
G1 X131.051 Y126.071 E5.17306
G1 X130.617 Y126.883 E5.20368
G1 X130.115 Y127.655 E5.23431
G1 X129.547 Y128.38 E5.26494
G1 X128.919 Y129.053 E5.29556
G1 X128.235 Y129.669 E5.32618
G1 X127.5 Y130.223 E5.35679
G1 X126.72 Y130.712 E5.38741
G1 X125.9 Y131.131 E5.41803
G1 X125.047 Y131.477 E5.44865
G1 X124.167 Y131.748 E5.47928
G1 X123.267 Y131.941 E5.50989
G1 X122.353 Y132.056 E5.54053
G1 X121.788 Y132.087 E5.55935
G1 X121.17 Y132.1 E5.57991
G1 X114.07 Y132.099 E5.81606
G1 X113.372 Y132.09 E5.83927
G1 X112.453 Y132.038 E5.86989
G1 X111.542 Y131.907 E5.9005
G1 X110.646 Y131.697 E5.93111
G1 X109.771 Y131.41 E5.96174
G1 X108.924 Y131.048 E5.99237
G1 X108.112 Y130.614 E6.023
G1 X107.341 Y130.112 E6.0536
G1 X106.616 Y129.544 E6.08423
G1 X105.943 Y128.915 E6.11487
G1 X105.328 Y128.231 E6.14546
G1 X104.774 Y127.496 E6.17607
G1 X104.286 Y126.715 E6.2067
G1 X103.867 Y125.895 E6.23733
G1 X103.521 Y125.042 E6.26795
G1 X103.251 Y124.162 E6.29856
G1 X103.058 Y123.261 E6.32921
G1 X102.944 Y122.348 E6.35981
G1 X102.913 Y121.777 E6.37883
G1 X102.9 Y121.158 E6.39943
G1 X102.901 Y114.031 E6.63647
G0 F6000 X103.301 Y114.036
G1 F1200 X103.31 Y113.371 E6.65859
G1 X103.362 Y112.469 E6.68864
G1 X103.494 Y111.576 E6.71867
G1 X103.704 Y110.698 E6.74869
G1 X103.991 Y109.841 E6.77875
G1 X104.353 Y109.014 E6.80878
G1 X104.786 Y108.222 E6.8388
G1 X105.288 Y107.471 E6.86884
G1 X105.855 Y106.767 E6.89891
G1 X106.481 Y106.117 E6.92892
G1 X107.162 Y105.524 E6.95896
G1 X107.894 Y104.994 E6.98902
G1 X108.669 Y104.531 E7.01904
G1 X109.482 Y104.138 E7.04908
G1 X110.327 Y103.818 E7.07913
G1 X111.196 Y103.575 E7.10914
G1 X112.084 Y103.409 E7.13919
G1 X113.223 Y103.313 E7.1772
G1 X113.83 Y103.3 E7.1974
G1 X120.793 Y103.3 E7.42899
G1 X121.637 Y103.311 E7.45706
G1 X122.539 Y103.364 E7.48711
G1 X123.432 Y103.496 E7.51714
G1 X124.31 Y103.707 E7.54717
G1 X125.166 Y103.995 E7.57721
G1 X125.993 Y104.357 E7.60724
G1 X126.785 Y104.792 E7.63729
G1 X127.536 Y105.294 E7.66734
G1 X128.239 Y105.861 E7.69738
G1 X128.889 Y106.488 E7.72741
G1 X129.481 Y107.17 E7.75745
G1 X130.011 Y107.901 E7.78748
G1 X130.473 Y108.677 E7.81752
G1 X130.866 Y109.49 E7.84755
G1 X131.184 Y110.335 E7.87758
G1 X131.427 Y111.205 E7.90763
G1 X131.592 Y112.093 E7.93767
G1 X131.687 Y113.223 E7.97538
G1 X131.7 Y113.83 E7.99558
G1 X131.699 Y120.89 E8.23039
G1 X131.69 Y121.617 E8.25458
G1 X131.639 Y122.519 E8.28462
G1 X131.508 Y123.413 E8.31468
G1 X131.299 Y124.291 E8.34469
G1 X131.013 Y125.148 E8.37474
G1 X130.652 Y125.976 E8.40479
G1 X130.22 Y126.768 E8.43479
G1 X129.719 Y127.52 E8.46485
G1 X129.153 Y128.224 E8.49489
G1 X128.528 Y128.875 E8.52491
G1 X127.847 Y129.469 E8.55496
G1 X127.116 Y130 E8.58501
G1 X126.342 Y130.464 E8.61503
G1 X125.529 Y130.858 E8.64508
G1 X124.685 Y131.178 E8.6751
G1 X123.815 Y131.423 E8.70516
G1 X122.928 Y131.589 E8.73517
G1 X121.777 Y131.687 E8.77359
G1 X121.17 Y131.7 E8.79379
G1 X114.075 Y131.699 E9.02977
G1 X113.377 Y131.69 E9.05299
G1 X112.476 Y131.639 E9.083
G1 X111.582 Y131.507 E9.11306
G1 X110.704 Y131.298 E9.14308
G1 X109.847 Y131.011 E9.17314
G1 X109.02 Y130.65 E9.20315
G1 X108.227 Y130.217 E9.2332
G1 X107.476 Y129.716 E9.26323
G1 X106.772 Y129.15 E9.29327
G1 X106.121 Y128.524 E9.32331
G1 X105.528 Y127.843 E9.35334
G1 X104.998 Y127.112 E9.38338
G1 X104.534 Y126.337 E9.41342
G1 X104.14 Y125.524 E9.44347
G1 X103.82 Y124.68 E9.47349
G1 X103.576 Y123.81 E9.50354
G1 X103.41 Y122.922 E9.53359
G1 X103.313 Y121.767 E9.57214
G1 X103.3 Y121.158 E9.5924
G1 X103.301 Y114.036 E9.82928
G1 F2700 E4.82928
;MESH:3ZCuBk3JpDe.stl
G0 F6000 X112.835 Y114.036
G0 X113.93 Y114.036
G0 X114.08 Y120.92
G1 F2700 E9.82928
G0 F6000 X113.7 Y121.3
;TYPE:WALL-OUTER
G1 F1200 X121.3 Y121.3 E10.08205
G1 X121.3 Y113.7 E10.33483
G1 X113.7 Y113.7 E10.58761
G1 X113.7 Y121.3 E10.84039
G0 F6000 X114.1 Y120.9
;TYPE:WALL-INNER
G1 F1200 X120.9 Y120.9 E11.06655
G1 X120.9 Y114.1 E11.29272
G1 X114.1 Y114.1 E11.51889
G1 X114.1 Y120.9 E11.74506
G0 F6000 X114.46 Y120.54
;TYPE:SKIN
G1 F1200 X120.54 Y120.54 E11.94728
G1 X120.54 Y114.46 E12.1495
G1 X114.46 Y114.46 E12.35173
G1 X114.46 Y117.5 E12.45284
G1 X114.46 Y120.54 E12.55395
G0 F6000 X115.248 Y120.339
G1 F1200 X114.659 Y119.75 E12.58165
G0 F6000 X114.659 Y119.184
G1 F1200 X115.814 Y120.339 E12.63598
G0 F6000 X116.379 Y120.339
G1 F1200 X114.659 Y118.619 E12.71688
G0 F6000 X114.659 Y118.053
G1 F1200 X116.945 Y120.339 E12.82441
G0 F6000 X117.511 Y120.339
G1 F1200 X114.659 Y117.487 E12.95856
G0 F6000 X114.659 Y116.922
G1 F1200 X118.076 Y120.339 E13.11928
G0 F6000 X118.642 Y120.339
G1 F1200 X114.659 Y116.356 E13.30663
G0 F6000 X114.659 Y115.79
G1 F1200 X119.208 Y120.339 E13.5206
G0 F6000 X119.773 Y120.339
G1 F1200 X114.659 Y115.225 E13.76115
G0 F6000 X114.659 Y114.659
G1 F1200 X120.339 Y120.339 E14.02832
G0 F6000 X120.339 Y119.773
G1 F1200 X115.225 Y114.66 E14.26884
G0 F6000 X115.791 Y114.66
G1 F1200 X120.339 Y119.208 E14.48277
G0 F6000 X120.339 Y118.642
G1 F1200 X116.357 Y114.66 E14.67007
G0 F6000 X116.922 Y114.66
G1 F1200 X120.339 Y118.076 E14.83077
G0 F6000 X120.339 Y117.511
G1 F1200 X117.488 Y114.66 E14.96487
G0 F6000 X118.054 Y114.66
G1 F1200 X120.339 Y116.945 E15.07235
G0 F6000 X120.339 Y116.379
G1 F1200 X118.619 Y114.66 E15.15323
G0 F6000 X119.185 Y114.66
G1 F1200 X120.339 Y115.814 E15.20751
G0 F6000 X120.339 Y115.248
G1 F1200 X119.751 Y114.66 E15.23517
G1 F2700 E10.23517
;MESH:NONMESH
G0 F300 X119.751 Y114.66 Z0.4
G0 F6000 X119.751 Y114.2
G0 X114.272 Y114.272
G0 X114.08 Y120.92
G1 F2700 E15.23517
G0 F6000 X113.7 Y121.3
;TIME_ELAPSED:31.146445
;LAYER:1
M106 S85
;TYPE:WALL-OUTER
;MESH:3ZCuBk3JpDe.stl
G1 F998 X121.3 Y121.3 E15.48795
G1 X121.3 Y113.7 E15.74072
G1 X113.7 Y113.7 E15.9935
G1 X113.7 Y121.3 E16.24628
G0 F7500 X114.1 Y120.9
;TYPE:WALL-INNER
G1 F998 X120.9 Y120.9 E16.47245
G1 X120.9 Y114.1 E16.69862
G1 X114.1 Y114.1 E16.92479
G1 X114.1 Y120.9 E17.15095
G0 F7500 X114.46 Y120.54
;TYPE:SKIN
G1 F998 X120.54 Y120.54 E17.35318
G1 X120.54 Y114.46 E17.5554
G1 X114.46 Y114.46 E17.75762
G1 X114.46 Y120.54 E17.95984
G0 F7500 X114.2 Y120.54
G0 X114.272 Y114.272
G0 X115.008 Y114.2
G0 X115.008 Y114.659
G1 F998 X114.66 Y115.008 E17.97623
G0 F7500 X114.66 Y115.573
G1 F998 X115.574 Y114.659 E18.01922
G0 F7500 X116.14 Y114.659
G1 F998 X114.66 Y116.139 E18.08884
G0 F7500 X114.66 Y116.705
G1 F998 X116.705 Y114.659 E18.18505
G0 F7500 X117.271 Y114.659
G1 F998 X114.66 Y117.27 E18.30787
G0 F7500 X114.66 Y117.836
G1 F998 X117.837 Y114.659 E18.4573
G0 F7500 X118.402 Y114.659
G1 F998 X114.66 Y118.402 E18.63334
G0 F7500 X114.66 Y118.967
G1 F998 X118.968 Y114.659 E18.83597
G0 F7500 X119.534 Y114.659
G1 F998 X114.66 Y119.533 E19.06523
G0 F7500 X114.66 Y120.099
G1 F998 X120.099 Y114.659 E19.32109
G0 F7500 X120.339 Y114.985
G1 F998 X114.985 Y120.339 E19.57293
G0 F7500 X115.551 Y120.339
G1 F998 X120.339 Y115.551 E19.79814
G0 F7500 X120.339 Y116.116
G1 F998 X116.116 Y120.339 E19.99678
G0 F7500 X116.682 Y120.339
G1 F998 X120.339 Y116.682 E20.16879
G0 F7500 X120.339 Y117.248
G1 F998 X117.248 Y120.339 E20.31418
G0 F7500 X117.813 Y120.339
G1 F998 X120.339 Y117.813 E20.433
G0 F7500 X120.339 Y118.379
G1 F998 X118.379 Y120.339 E20.52519
G0 F7500 X118.945 Y120.339
G1 F998 X120.339 Y118.945 E20.59076
G0 F7500 X120.339 Y119.51
G1 F998 X119.51 Y120.339 E20.62975
G0 F7500 X120.076 Y120.339
G1 F998 X120.339 Y120.076 E20.64212
G1 F2700 E15.64212
;MESH:NONMESH
G0 F300 X120.339 Y120.076 Z0.6
G0 F7500 X120.8 Y120.076
G0 X120.728 Y120.728
G0 X114.08 Y120.92
G1 F2700 E20.64212
G0 F7500 X113.7 Y121.3
;TIME_ELAPSED:43.551604
;LAYER:2
M106 S170
;TYPE:WALL-OUTER
;MESH:3ZCuBk3JpDe.stl
G1 F987.6 X121.3 Y121.3 E20.8949
G1 X121.3 Y113.7 E21.14768
G1 X113.7 Y113.7 E21.40045
G1 X113.7 Y117.5 E21.52684
G1 X113.7 Y121.3 E21.65323
G0 F9000 X114.1 Y120.9
;TYPE:WALL-INNER
G1 F987.6 X120.9 Y120.9 E21.8794
G1 X120.9 Y114.1 E22.10557
G1 X114.1 Y114.1 E22.33174
G1 X114.1 Y117.5 E22.44482
G1 X114.1 Y120.9 E22.55791
G0 F9000 X114.46 Y120.54
;TYPE:SKIN
G1 F987.6 X120.54 Y120.54 E22.76013
G1 X120.54 Y114.46 E22.96235
G1 X114.46 Y114.46 E23.16457
G1 X114.46 Y120.54 E23.36679
G0 F9000 X115.248 Y120.339
G1 F987.6 X114.659 Y119.75 E23.3945
G0 F9000 X114.659 Y119.184
G1 F987.6 X115.814 Y120.339 E23.44882
G0 F9000 X116.379 Y120.339
G1 F987.6 X114.659 Y118.619 E23.52973
G0 F9000 X114.659 Y118.053
G1 F987.6 X116.945 Y120.339 E23.63725
G0 F9000 X117.511 Y120.339
G1 F987.6 X114.659 Y117.487 E23.7714
G0 F9000 X114.659 Y116.922
G1 F987.6 X118.076 Y120.339 E23.93213
G0 F9000 X118.642 Y120.339
G1 F987.6 X114.659 Y116.356 E24.11948
G0 F9000 X114.659 Y115.79
G1 F987.6 X119.208 Y120.339 E24.33345
G0 F9000 X119.773 Y120.339
G1 F987.6 X114.659 Y115.225 E24.574
G0 F9000 X114.659 Y114.659
G1 F987.6 X120.339 Y120.339 E24.84116
G0 F9000 X120.339 Y119.773
G1 F987.6 X115.225 Y114.66 E25.08169
G0 F9000 X115.791 Y114.66
G1 F987.6 X120.339 Y119.208 E25.29561
G0 F9000 X120.339 Y118.642
G1 F987.6 X116.357 Y114.66 E25.48291
G0 F9000 X116.922 Y114.66
G1 F987.6 X120.339 Y118.076 E25.64362
G0 F9000 X120.339 Y117.511
G1 F987.6 X117.488 Y114.66 E25.77772
G0 F9000 X118.054 Y114.66
G1 F987.6 X120.339 Y116.945 E25.8852
G0 F9000 X120.339 Y116.379
G1 F987.6 X118.619 Y114.66 E25.96608
G0 F9000 X119.185 Y114.66
G1 F987.6 X120.339 Y115.814 E26.02036
G0 F9000 X120.339 Y115.248
G1 F987.6 X119.751 Y114.66 E26.04802
G1 F2700 E21.04802
;MESH:NONMESH
G0 F300 X119.751 Y114.66 Z0.8
G0 F9000 X119.751 Y114.2
G0 X114.272 Y114.272
G0 X114.08 Y120.92
G1 F2700 E26.04802
G0 F9000 X113.7 Y121.3
;TIME_ELAPSED:55.889278
;LAYER:3
M106 S255
;TYPE:WALL-OUTER
;MESH:3ZCuBk3JpDe.stl
G1 F994.2 X121.3 Y121.3 E26.30079
G1 X121.3 Y113.7 E26.55357
G1 X113.7 Y113.7 E26.80635
G1 X113.7 Y121.3 E27.05912
G0 F9000 X114.1 Y120.9
;TYPE:WALL-INNER
G1 F994.2 X120.9 Y120.9 E27.28529
G1 X120.9 Y114.1 E27.51146
G1 X114.1 Y114.1 E27.73763
G1 X114.1 Y120.9 E27.9638
G0 F9000 X114.46 Y120.54
;TYPE:SKIN
G1 F994.2 X120.54 Y120.54 E28.16602
G1 X120.54 Y114.46 E28.36824
G1 X114.46 Y114.46 E28.57046
G1 X114.46 Y120.54 E28.77269
G0 F9000 X114.2 Y120.54
G0 X114.272 Y114.272
G0 X115.008 Y114.2
G0 X115.008 Y114.659
G1 F994.2 X114.66 Y115.008 E28.78908
G0 F9000 X114.66 Y115.573
G1 F994.2 X115.574 Y114.659 E28.83207
G0 F9000 X116.14 Y114.659
G1 F994.2 X114.66 Y116.139 E28.90168
G0 F9000 X114.66 Y116.705
G1 F994.2 X116.705 Y114.659 E28.9979
G0 F9000 X117.271 Y114.659
G1 F994.2 X114.66 Y117.27 E29.12071
G0 F9000 X114.66 Y117.836
G1 F994.2 X117.837 Y114.659 E29.27015
G0 F9000 X118.402 Y114.659
G1 F994.2 X114.66 Y118.402 E29.44618
G0 F9000 X114.66 Y118.967
G1 F994.2 X118.968 Y114.659 E29.64882
G0 F9000 X119.534 Y114.659
G1 F994.2 X114.66 Y119.533 E29.87808
G0 F9000 X114.66 Y120.099
G1 F994.2 X120.099 Y114.659 E30.13393
G0 F9000 X120.339 Y114.985
G1 F994.2 X114.985 Y120.339 E30.38577
G0 F9000 X115.551 Y120.339
G1 F994.2 X120.339 Y115.551 E30.61098
G0 F9000 X120.339 Y116.116
G1 F994.2 X116.116 Y120.339 E30.80962
G0 F9000 X116.682 Y120.339
G1 F994.2 X120.339 Y116.682 E30.98163
G0 F9000 X120.339 Y117.248
G1 F994.2 X117.248 Y120.339 E31.12703
G0 F9000 X117.813 Y120.339
G1 F994.2 X120.339 Y117.813 E31.24584
G0 F9000 X120.339 Y118.379
G1 F994.2 X118.379 Y120.339 E31.33803
G0 F9000 X118.945 Y120.339
G1 F994.2 X120.339 Y118.945 E31.4036
G0 F9000 X120.339 Y119.51
G1 F994.2 X119.51 Y120.339 E31.4426
G0 F9000 X120.076 Y120.339
