;FLAVOR:Marlin
;TIME:1605
;Filament used: 1.13259m
;Layer height: 0.2
;MINX:74.5
;MINY:72
;MINZ:0.2
;MAXX:160.5
;MAXY:163
;MAXZ:0.6
;Generated with Cura_SteamEngine 5.0.0
M140 S50
M105
M190 S50
M104 S200
M105
M109 S200
M82 ;absolute extrusion mode
; Ender 3 Custom Start G-code
G92 E0 ; Reset Extruder
G28 ; Home all axes
G1 Z2.0 F3000 ; Move Z Axis up little to prevent scratching of Heat Bed
G1 X0.1 Y20 Z0.3 F5000.0 ; Move to start position
G1 X0.1 Y200.0 Z0.3 F1500.0 E15 ; Draw the first line
G1 X0.4 Y200.0 Z0.3 F5000.0 ; Move to side a little
G1 X0.4 Y20 Z0.3 F1500.0 E30 ; Draw the second line
G92 E0 ; Reset Extruder
G1 Z2.0 F3000 ; Move Z Axis up little to prevent scratching of Heat Bed
G1 X5 Y20 Z0.3 F5000.0 ; Move over to prevent blob squish
G92 E0
G92 E0
G1 F2700 E-5
;LAYER_COUNT:3
;LAYER:0
M107
G0 F6000 X77.698 Y75.264 Z0.2
G0 X74.501 Y83.525
;TYPE:SKIRT
G1 F2700 E0
G1 F1200 X74.51 Y82.86 E0.02212
G1 X74.563 Y81.924 E0.0533
G1 X74.695 Y80.995 E0.08451
G1 X74.906 Y80.081 E0.11571
G1 X75.194 Y79.189 E0.14689
G1 X75.557 Y78.324 E0.17809
G1 X75.992 Y77.493 E0.20928
G1 X76.496 Y76.703 E0.24045
G1 X77.066 Y75.958 E0.27165
G1 X77.698 Y75.264 E0.30287
G1 X78.386 Y74.627 E0.33405
G1 X79.126 Y74.051 E0.36524
G1 X79.912 Y73.539 E0.39644
G1 X80.739 Y73.097 E0.42763
G1 X81.601 Y72.727 E0.45883
G1 X82.491 Y72.431 E0.49003
G1 X83.403 Y72.213 E0.52122
G1 X84.33 Y72.072 E0.5524
G1 X85.201 Y72.013 E0.58144
G1 X85.849 Y72 E0.603
G1 X89.868 Y72.007 E0.73667
G1 X90.777 Y72 E0.7669
G1 X144.026 Y72 E2.53797
G1 X145.946 Y72.007 E2.60183
G1 X148.951 Y72.001 E2.70178
G1 X149.649 Y72.011 E2.725
G1 X150.585 Y72.065 E2.75618
G1 X151.513 Y72.197 E2.78736
G1 X152.427 Y72.409 E2.81856
G1 X153.319 Y72.698 E2.84975
G1 X154.184 Y73.061 E2.88095
G1 X155.014 Y73.497 E2.91213
G1 X155.805 Y74.002 E2.94335
G1 X156.549 Y74.573 E2.97454
G1 X157.242 Y75.205 E3.00573
G1 X157.879 Y75.893 E3.03692
G1 X158.454 Y76.634 E3.06811
G1 X158.965 Y77.42 E3.0993
G1 X159.407 Y78.248 E3.13051
G1 X159.776 Y79.11 E3.1617
G1 X160.071 Y80 E3.19289
G1 X160.289 Y80.912 E3.22407
G1 X160.429 Y81.84 E3.25529
G1 X160.487 Y82.701 E3.28399
G1 X160.5 Y83.33 E3.30491
G1 X160.499 Y151.4 E5.56893
G1 X160.49 Y152.127 E5.59311
G1 X160.439 Y153.064 E5.62433
G1 X160.307 Y153.992 E5.6555
G1 X160.098 Y154.906 E5.68669
G1 X159.811 Y155.799 E5.71788
G1 X159.449 Y156.665 E5.7491
G1 X159.015 Y157.496 E5.78028
G1 X158.511 Y158.287 E5.81148
G1 X157.942 Y159.032 E5.84266
G1 X157.311 Y159.727 E5.87388
G1 X156.624 Y160.365 E5.90506
G1 X155.885 Y160.942 E5.93625
G1 X155.099 Y161.454 E5.96745
G1 X154.273 Y161.897 E5.99862
G1 X153.411 Y162.269 E6.02985
G1 X152.522 Y162.565 E6.06101
G1 X151.61 Y162.785 E6.09221
G1 X150.683 Y162.926 E6.1234
G1 X149.799 Y162.987 E6.15287
G1 X149.17 Y163 E6.1738
G1 X86.065 Y162.999 E8.27268
G1 X85.367 Y162.99 E8.2959
G1 X84.431 Y162.938 E8.32708
G1 X83.502 Y162.806 E8.35829
G1 X82.588 Y162.596 E8.38948
G1 X81.695 Y162.309 E8.42067
G1 X80.83 Y161.946 E8.45188
G1 X79.999 Y161.512 E8.48306
G1 X79.208 Y161.008 E8.51425
G1 X78.463 Y160.438 E8.54545
G1 X77.769 Y159.807 E8.57665
G1 X77.132 Y159.12 E8.60781
G1 X76.555 Y158.38 E8.63902
G1 X76.043 Y157.594 E8.67022
G1 X75.6 Y156.767 E8.70142
G1 X75.229 Y155.906 E8.73261
G1 X74.933 Y155.016 E8.7638
G1 X74.714 Y154.104 E8.795
G1 X74.573 Y153.177 E8.82618
G1 X74.513 Y152.288 E8.85582
G1 X74.5 Y151.658 E8.87678
G1 X74.501 Y83.525 E11.14289
G0 F6000 X74.901 Y83.531
G1 F1200 X74.91 Y82.866 E11.16501
G1 X74.962 Y81.946 E11.19566
G1 X75.094 Y81.035 E11.22628
G1 X75.305 Y80.139 E11.25689
G1 X75.592 Y79.264 E11.28752
G1 X75.955 Y78.418 E11.31814
G1 X76.389 Y77.606 E11.34876
G1 X76.892 Y76.835 E11.37938
G1 X77.461 Y76.111 E11.41001
G1 X78.089 Y75.439 E11.4406
G1 X78.774 Y74.823 E11.47124
G1 X79.51 Y74.27 E11.50186
G1 X80.291 Y73.782 E11.53249
G1 X81.111 Y73.364 E11.5631
G1 X81.965 Y73.019 E11.59373
G1 X82.845 Y72.749 E11.62435
G1 X83.745 Y72.557 E11.65496
G1 X84.659 Y72.443 E11.68559
G1 X85.212 Y72.413 E11.70401
G1 X85.848 Y72.4 E11.72517
G1 X89.87 Y72.407 E11.85894
G1 X90.78 Y72.4 E11.88921
G1 X144.024 Y72.4 E13.66011
G1 X145.945 Y72.407 E13.72401
G1 X148.945 Y72.401 E13.82379
G1 X149.643 Y72.411 E13.84701
G1 X150.562 Y72.464 E13.87762
G1 X151.473 Y72.597 E13.90824
G1 X152.369 Y72.808 E13.93886
G1 X153.243 Y73.096 E13.96947
G1 X154.09 Y73.459 E14.00012
G1 X154.901 Y73.894 E14.03073
G1 X155.671 Y74.398 E14.06133
G1 X156.395 Y74.967 E14.09196
G1 X157.067 Y75.597 E14.1226
G1 X157.682 Y76.282 E14.15322
G1 X158.235 Y77.018 E14.18384
G1 X158.722 Y77.799 E14.21445
G1 X159.139 Y78.62 E14.24508
G1 X159.484 Y79.474 E14.27571
G1 X159.753 Y80.354 E14.30632
G1 X159.945 Y81.255 E14.33696
G1 X160.058 Y82.168 E14.36755
G1 X160.096 Y83.032 E14.39632
G1 X160.099 Y151.395 E16.67008
G1 X160.09 Y152.122 E16.69426
G1 X160.039 Y153.041 E16.72488
G1 X159.908 Y153.953 E16.75552
G1 X159.698 Y154.849 E16.78613
G1 X159.412 Y155.724 E16.81675
G1 X159.051 Y156.571 E16.84737
G1 X158.617 Y157.383 E16.87799
G1 X158.115 Y158.155 E16.90862
G1 X157.547 Y158.88 E16.93925
G1 X156.919 Y159.553 E16.96987
G1 X156.235 Y160.169 E17.00049
G1 X155.5 Y160.723 E17.0311
G1 X154.72 Y161.212 E17.06172
G1 X153.9 Y161.631 E17.09235
G1 X153.047 Y161.977 E17.12296
G1 X152.167 Y162.248 E17.15359
G1 X151.267 Y162.441 E17.1842
G1 X150.353 Y162.556 E17.21484
G1 X149.788 Y162.587 E17.23366
G1 X149.17 Y162.6 E17.25422
G1 X86.07 Y162.599 E19.35294
G1 X85.372 Y162.59 E19.37615
G1 X84.453 Y162.538 E19.40677
G1 X83.542 Y162.407 E19.43738
G1 X82.646 Y162.197 E19.46799
G1 X81.771 Y161.91 E19.49862
G1 X80.924 Y161.548 E19.52925
G1 X80.112 Y161.114 E19.55988
G1 X79.341 Y160.612 E19.59048
G1 X78.616 Y160.044 E19.62111
G1 X77.943 Y159.415 E19.65175
G1 X77.328 Y158.731 E19.68234
G1 X76.774 Y157.996 E19.71295
G1 X76.286 Y157.215 E19.74358
G1 X75.867 Y156.395 E19.77421
G1 X75.521 Y155.542 E19.80483
G1 X75.251 Y154.662 E19.83544
G1 X75.058 Y153.761 E19.86609
G1 X74.944 Y152.848 E19.89669
G1 X74.913 Y152.277 E19.91571
G1 X74.9 Y151.658 E19.9363
G1 X74.901 Y83.531 E22.20222
G0 F6000 X75.301 Y83.536
G1 F1200 X75.31 Y82.871 E22.22434
G1 X75.362 Y81.969 E22.25439
G1 X75.494 Y81.076 E22.28441
G1 X75.704 Y80.198 E22.31444
G1 X75.991 Y79.341 E22.3445
G1 X76.353 Y78.514 E22.37452
G1 X76.786 Y77.722 E22.40455
G1 X77.288 Y76.971 E22.43459
G1 X77.855 Y76.267 E22.46466
G1 X78.481 Y75.617 E22.49467
G1 X79.162 Y75.024 E22.5247
G1 X79.894 Y74.494 E22.55476
G1 X80.669 Y74.031 E22.58479
G1 X81.482 Y73.638 E22.61482
G1 X82.327 Y73.318 E22.64487
G1 X83.196 Y73.075 E22.67489
G1 X84.084 Y72.909 E22.70493
G1 X85.223 Y72.813 E22.74295
G1 X85.847 Y72.8 E22.76371
G1 X89.872 Y72.807 E22.89758
G1 X90.783 Y72.8 E22.92788
G1 X144.023 Y72.8 E24.69865
G1 X145.945 Y72.807 E24.76258
G1 X148.939 Y72.801 E24.86216
G1 X149.637 Y72.811 E24.88538
G1 X150.539 Y72.864 E24.91543
G1 X151.432 Y72.996 E24.94545
G1 X152.31 Y73.207 E24.97549
G1 X153.166 Y73.495 E25.00553
G1 X153.993 Y73.857 E25.03555
G1 X154.785 Y74.292 E25.06561
G1 X155.536 Y74.794 E25.09565
G1 X156.239 Y75.361 E25.12569
G1 X156.889 Y75.988 E25.15573
G1 X157.481 Y76.67 E25.18577
G1 X158.011 Y77.401 E25.2158
G1 X158.473 Y78.177 E25.24583
G1 X158.866 Y78.99 E25.27587
G1 X159.184 Y79.835 E25.3059
G1 X159.427 Y80.705 E25.33594
G1 X159.592 Y81.593 E25.36598
G1 X159.687 Y82.723 E25.4037
G1 X159.7 Y83.33 E25.42389
G1 X159.699 Y151.39 E27.68758
G1 X159.69 Y152.117 E27.71176
G1 X159.639 Y153.019 E27.74181
G1 X159.508 Y153.913 E27.77186
G1 X159.299 Y154.791 E27.80188
G1 X159.013 Y155.648 E27.83193
G1 X158.652 Y156.476 E27.86197
G1 X158.22 Y157.268 E27.89198
G1 X157.719 Y158.02 E27.92203
G1 X157.153 Y158.724 E27.95207
G1 X156.528 Y159.375 E27.98209
G1 X155.847 Y159.969 E28.01215
G1 X155.116 Y160.5 E28.0422
G1 X154.342 Y160.964 E28.07221
G1 X153.529 Y161.358 E28.10226
G1 X152.685 Y161.678 E28.13228
G1 X151.815 Y161.923 E28.16234
G1 X150.928 Y162.089 E28.19236
G1 X149.777 Y162.187 E28.23078
G1 X149.17 Y162.2 E28.25097
G1 X86.075 Y162.199 E30.34952
G1 X85.377 Y162.19 E30.37274
G1 X84.476 Y162.139 E30.40275
G1 X83.582 Y162.007 E30.43281
G1 X82.704 Y161.798 E30.46283
G1 X81.847 Y161.511 E30.49289
G1 X81.02 Y161.15 E30.5229
G1 X80.227 Y160.717 E30.55295
G1 X79.476 Y160.216 E30.58298
G1 X78.772 Y159.65 E30.61302
G1 X78.121 Y159.024 E30.64306
G1 X77.528 Y158.343 E30.6731
G1 X76.998 Y157.612 E30.70313
G1 X76.534 Y156.837 E30.73317
G1 X76.14 Y156.024 E30.76322
G1 X75.82 Y155.18 E30.79324
G1 X75.576 Y154.31 E30.82329
G1 X75.41 Y153.422 E30.85334
G1 X75.313 Y152.267 E30.89189
G1 X75.3 Y151.658 E30.91215
G1 X75.301 Y83.536 E33.1779
G1 F2700 E28.1779
;MESH:wallV1.stl
G0 F6000 X84.835 Y89.5
G0 X86.3 Y89.5
G0 X86.08 Y151.42
G1 F2700 E33.1779
G0 F6000 X85.7 Y151.8
;TYPE:WALL-OUTER
G1 F1200 X149.3 Y151.8 E35.29324
G1 X149.3 Y83.2 E37.57489
G1 X146.704 Y83.2 E37.66123
G1 X146.704 Y88.002 E37.82095
G1 X146.624 Y88.163 E37.82692
G1 X146.503 Y88.202 E37.83115
G1 X144.498 Y88.202 E37.89784
G1 X144.349 Y88.137 E37.90325
G1 X144.298 Y88.002 E37.90805
G1 X144.298 Y83.2 E38.06776
G1 X90.702 Y83.2 E39.85037
G1 X90.702 Y88.002 E40.01009
G1 X90.637 Y88.151 E40.01549
G1 X90.502 Y88.202 E40.02029
G1 X88.497 Y88.202 E40.08698
G1 X88.376 Y88.162 E40.09122
G1 X88.297 Y88.002 E40.09715
G1 X88.297 Y83.2 E40.25687
G1 X85.7 Y83.2 E40.34325
G1 X85.7 Y151.8 E42.62489
G0 F6000 X86.1 Y151.4
;TYPE:WALL-INNER
G1 F1200 X148.9 Y151.4 E44.71363
G1 X148.9 Y83.6 E46.96866
G1 X147.104 Y83.6 E47.0284
G1 X147.104 Y88.002 E47.17481
G1 X147.034 Y88.285 E47.18451
G1 X146.864 Y88.483 E47.19319
G1 X146.672 Y88.579 E47.20033
G1 X146.503 Y88.602 E47.206
G1 X144.498 Y88.602 E47.27269
G1 X144.226 Y88.538 E47.28198
G1 X144.009 Y88.351 E47.29151
G1 X143.904 Y88.089 E47.3009
G1 X143.898 Y88.002 E47.3038
G1 X143.898 Y83.6 E47.45021
G1 X91.102 Y83.6 E49.20621
G1 X91.102 Y88.002 E49.35262
G1 X91.038 Y88.274 E49.36191
G1 X90.851 Y88.491 E49.37144
G1 X90.589 Y88.596 E49.38083
G1 X90.502 Y88.602 E49.38373
G1 X88.497 Y88.602 E49.45042
G1 X88.328 Y88.578 E49.45609
G1 X88.136 Y88.482 E49.46323
G1 X87.967 Y88.285 E49.47187
G1 X87.897 Y88.002 E49.48156
G1 X87.897 Y83.6 E49.62797
G1 X86.1 Y83.6 E49.68774
G1 X86.1 Y151.4 E51.94278
G0 F6000 X86.46 Y151.04
;TYPE:SKIN
G1 F1200 X148.54 Y151.04 E54.00757
G1 X148.54 Y83.96 E56.23866
G1 X147.464 Y83.96 E56.27445
G1 X147.464 Y87.999 E56.40878
G1 X147.368 Y88.41 E56.42282
G1 X147.113 Y88.74 E56.43669
G1 X146.805 Y88.912 E56.44843
G1 X146.522 Y88.961 E56.45798
G1 X144.487 Y88.962 E56.52566
G1 X144.09 Y88.87 E56.53922
G1 X143.812 Y88.671 E56.55059
G1 X143.62 Y88.385 E56.56205
G1 X143.541 Y88.04 E56.57382
G1 X143.538 Y88.002 E56.57509
G1 X143.538 Y83.96 E56.70952
G1 X91.462 Y83.96 E58.44158
G1 X91.462 Y87.999 E58.57592
G1 X91.406 Y88.318 E58.58669
G1 X91.208 Y88.649 E58.59952
G1 X90.892 Y88.876 E58.61246
G1 X90.535 Y88.959 E58.62465
G1 X90.497 Y88.962 E58.62592
G1 X88.476 Y88.961 E58.69313
G1 X88.195 Y88.911 E58.70263
G1 X87.949 Y88.788 E58.71177
G1 X87.674 Y88.492 E58.72521
G1 X87.542 Y88.051 E58.74052
G1 X87.537 Y88.002 E58.74216
G1 X87.537 Y83.961 E58.87657
G1 X86.461 Y83.961 E58.91235
G1 X86.46 Y151.04 E61.14341
G0 F6000 X86.916 Y150.839
G1 F1200 X86.659 Y150.581 E61.15552
G0 F6000 X86.659 Y150.016
G1 F1200 X87.482 Y150.839 E61.19423
G0 F6000 X88.048 Y150.839
G1 F1200 X86.659 Y149.45 E61.25957
G0 F6000 X86.659 Y148.884
G1 F1200 X88.613 Y150.839 E61.3515
G0 F6000 X89.179 Y150.839
G1 F1200 X86.659 Y148.319 E61.47003
G0 F6000 X86.659 Y147.753
G1 F1200 X89.745 Y150.839 E61.61519
G0 F6000 X90.31 Y150.839
G1 F1200 X86.659 Y147.187 E61.78695
G0 F6000 X86.659 Y146.622
G1 F1200 X90.876 Y150.839 E61.9853
G0 F6000 X91.442 Y150.839
G1 F1200 X86.659 Y146.056 E62.21028
G0 F6000 X86.659 Y145.49
G1 F1200 X92.008 Y150.839 E62.46188
G0 F6000 X92.573 Y150.839
G1 F1200 X86.659 Y144.925 E62.74006
G0 F6000 X86.659 Y144.359
G1 F1200 X93.139 Y150.839 E63.04485
G0 F6000 X93.705 Y150.839
G1 F1200 X86.659 Y143.793 E63.37628
G0 F6000 X86.659 Y143.228
G1 F1200 X94.27 Y150.839 E63.73428
G0 F6000 X94.836 Y150.839
G1 F1200 X86.659 Y142.662 E64.1189
G0 F6000 X86.659 Y142.096
G1 F1200 X95.402 Y150.839 E64.53014
G0 F6000 X95.967 Y150.839
G1 F1200 X86.659 Y141.53 E64.96798
G0 F6000 X86.659 Y140.965
G1 F1200 X96.533 Y150.839 E65.43243
G0 F6000 X97.099 Y150.839
G1 F1200 X86.659 Y140.399 E65.92349
G0 F6000 X86.659 Y139.833
G1 F1200 X97.664 Y150.839 E66.44116
G0 F6000 X98.23 Y150.839
G1 F1200 X86.659 Y139.268 E66.98542
G0 F6000 X86.659 Y138.702
G1 F1200 X98.796 Y150.839 E67.55631
G0 F6000 X99.361 Y150.839
G1 F1200 X86.659 Y138.136 E68.15379
G0 F6000 X86.659 Y137.571
G1 F1200 X99.927 Y150.839 E68.77788
G0 F6000 X100.493 Y150.839
G1 F1200 X86.659 Y137.005 E69.42859
G0 F6000 X86.659 Y136.439
G1 F1200 X101.058 Y150.839 E70.1059
G0 F6000 X101.624 Y150.839
G1 F1200 X86.659 Y135.874 E70.80981
G0 F6000 X86.659 Y135.308
G1 F1200 X102.19 Y150.839 E71.54034
G0 F6000 X102.756 Y150.839
G1 F1200 X86.659 Y134.742 E72.29749
G0 F6000 X86.659 Y134.177
G1 F1200 X103.321 Y150.839 E73.08122
G0 F6000 X103.887 Y150.839
G1 F1200 X86.659 Y133.611 E73.89157
G0 F6000 X86.659 Y133.045
G1 F1200 X104.453 Y150.839 E74.72855
G0 F6000 X105.018 Y150.839
G1 F1200 X86.659 Y132.479 E75.59212
G0 F6000 X86.659 Y131.914
G1 F1200 X105.584 Y150.839 E76.4823
G0 F6000 X106.15 Y150.839
G1 F1200 X86.659 Y131.348 E77.39909
G0 F6000 X86.659 Y130.782
G1 F1200 X106.715 Y150.839 E78.34249
G0 F6000 X107.281 Y150.839
G1 F1200 X86.659 Y130.217 E79.31248
G0 F6000 X86.659 Y129.651
G1 F1200 X107.847 Y150.839 E80.3091
G0 F6000 X108.412 Y150.839
G1 F1200 X86.659 Y129.085 E81.33232
G0 F6000 X86.659 Y128.52
G1 F1200 X108.978 Y150.839 E82.38214
G0 F6000 X109.544 Y150.839
G1 F1200 X86.659 Y127.954 E83.45858
G0 F6000 X86.659 Y127.388
G1 F1200 X110.109 Y150.839 E84.56162
G0 F6000 X110.675 Y150.839
G1 F1200 X86.659 Y126.823 E85.69126
G0 F6000 X86.659 Y126.257
G1 F1200 X111.241 Y150.839 E86.84752
G0 F6000 X111.807 Y150.839
G1 F1200 X86.659 Y125.691 E88.0304
G0 F6000 X86.659 Y125.126
G1 F1200 X112.372 Y150.839 E89.23986
G0 F6000 X112.938 Y150.839
G1 F1200 X86.659 Y124.56 E90.47595
G0 F6000 X86.659 Y123.994
G1 F1200 X113.504 Y150.839 E91.73865
G0 F6000 X114.069 Y150.839
G1 F1200 X86.659 Y123.429 E93.02794
G0 F6000 X86.659 Y122.863
G1 F1200 X114.635 Y150.839 E94.34384
G0 F6000 X115.201 Y150.839
G1 F1200 X86.659 Y122.297 E95.68637
G0 F6000 X86.659 Y121.731
G1 F1200 X115.766 Y150.839 E97.0555
G0 F6000 X116.332 Y150.839
G1 F1200 X86.659 Y121.166 E98.45122
G0 F6000 X86.659 Y120.6
G1 F1200 X116.898 Y150.839 E99.87357
G0 F6000 X117.463 Y150.839
G1 F1200 X86.659 Y120.034 E101.32252
G0 F6000 X86.659 Y119.469
G1 F1200 X118.029 Y150.839 E102.79807
G0 F6000 X118.595 Y150.839
G1 F1200 X86.659 Y118.903 E104.30024
G0 F6000 X86.659 Y118.337
G1 F1200 X119.16 Y150.839 E105.82902
G0 F6000 X119.726 Y150.839
G1 F1200 X86.659 Y117.772 E107.38439
G0 F6000 X86.659 Y117.206
G1 F1200 X120.292 Y150.839 E108.96638
G0 F6000 X120.857 Y150.839
G1 F1200 X86.659 Y116.64 E110.57497
G0 F6000 X86.659 Y116.075
G1 F1200 X121.423 Y150.839 E112.21016
G0 F6000 X121.989 Y150.839
G1 F1200 X86.659 Y115.509 E113.87198
G0 F6000 X86.659 Y114.943
G1 F1200 X122.555 Y150.839 E115.56042
G0 F6000 X123.12 Y150.839
G1 F1200 X86.659 Y114.378 E117.27543
G0 F6000 X86.659 Y113.812
G1 F1200 X123.686 Y150.839 E119.01707
G0 F6000 X124.252 Y150.839
G1 F1200 X86.659 Y113.246 E120.78533
G0 F6000 X86.659 Y112.681
G1 F1200 X124.817 Y150.839 E122.58016
G0 F6000 X125.383 Y150.839
G1 F1200 X86.659 Y112.115 E124.40162
G0 F6000 X86.659 Y111.549
G1 F1200 X125.949 Y150.839 E126.2497
G0 F6000 X126.514 Y150.839
G1 F1200 X86.659 Y110.983 E128.12438
G0 F6000 X86.659 Y110.418
G1 F1200 X127.08 Y150.839 E130.02566
G0 F6000 X127.646 Y150.839
G1 F1200 X86.659 Y109.852 E131.95356
G0 F6000 X86.659 Y109.286
G1 F1200 X128.211 Y150.839 E133.90807
G0 F6000 X128.777 Y150.839
G1 F1200 X86.659 Y108.721 E135.88917
G0 F6000 X86.659 Y108.155
G1 F1200 X129.343 Y150.839 E137.89689
G0 F6000 X129.908 Y150.839
G1 F1200 X86.659 Y107.589 E139.93122
G0 F6000 X86.659 Y107.024
G1 F1200 X130.474 Y150.839 E141.99214
G0 F6000 X131.04 Y150.839
G1 F1200 X86.659 Y106.458 E144.07969
G0 F6000 X86.659 Y105.892
