;FLAVOR:Marlin
;TIME:3871
;Filament used: 2.91792m
;Layer height: 0.2
;MINX:73.5
;MINY:73.5
;MINZ:0.2
;MAXX:161.5
;MAXY:161.5
;MAXZ:1.6
;Generated with Cura_SteamEngine 5.0.0
M140 S50
M105
M190 S50
M104 S200
M105
M109 S200
M82 ;absolute extrusion mode
; Ender 3 Custom Start G-code
G92 E0 ; Reset Extruder
G28 ; Home all axes
G1 Z2.0 F3000 ; Move Z Axis up little to prevent scratching of Heat Bed
G1 X0.1 Y20 Z0.3 F5000.0 ; Move to start position
G1 X0.1 Y200.0 Z0.3 F1500.0 E15 ; Draw the first line
G1 X0.4 Y200.0 Z0.3 F5000.0 ; Move to side a little
G1 X0.4 Y20 Z0.3 F1500.0 E30 ; Draw the second line
G92 E0 ; Reset Extruder
G1 Z2.0 F3000 ; Move Z Axis up little to prevent scratching of Heat Bed
G1 X5 Y20 Z0.3 F5000.0 ; Move over to prevent blob squish
G92 E0
G92 E0
G1 F2700 E-5
;LAYER_COUNT:8
;LAYER:0
M107
G0 F6000 X76.698 Y76.764 Z0.2
G0 X73.501 Y85.025
;TYPE:SKIRT
G1 F2700 E0
G1 F1200 X73.51 Y84.36 E0.02212
G1 X73.563 Y83.424 E0.0533
G1 X73.695 Y82.495 E0.08451
G1 X73.906 Y81.581 E0.11571
G1 X74.194 Y80.689 E0.14689
G1 X74.557 Y79.824 E0.17809
G1 X74.992 Y78.993 E0.20928
G1 X75.496 Y78.203 E0.24045
G1 X76.066 Y77.458 E0.27165
G1 X76.698 Y76.764 E0.30287
G1 X77.386 Y76.127 E0.33405
G1 X78.126 Y75.551 E0.36524
G1 X78.912 Y75.039 E0.39644
G1 X79.739 Y74.597 E0.42763
G1 X80.601 Y74.227 E0.45883
G1 X81.491 Y73.931 E0.49003
G1 X82.403 Y73.713 E0.52122
G1 X83.33 Y73.572 E0.5524
G1 X84.201 Y73.513 E0.58144
G1 X84.83 Y73.5 E0.60236
G1 X149.793 Y73.5 E2.76304
G1 X150.649 Y73.511 E2.79151
G1 X151.585 Y73.565 E2.8227
G1 X152.513 Y73.697 E2.85387
G1 X153.427 Y73.909 E2.88508
G1 X154.319 Y74.198 E2.91627
G1 X155.184 Y74.561 E2.94747
G1 X156.014 Y74.997 E2.97865
G1 X156.805 Y75.502 E3.00986
G1 X157.549 Y76.073 E3.04106
G1 X158.242 Y76.705 E3.07225
G1 X158.879 Y77.393 E3.10344
G1 X159.454 Y78.134 E3.13463
G1 X159.965 Y78.92 E3.16581
G1 X160.407 Y79.748 E3.19703
G1 X160.776 Y80.61 E3.22822
G1 X161.071 Y81.5 E3.2594
G1 X161.289 Y82.412 E3.29059
G1 X161.429 Y83.34 E3.32181
G1 X161.487 Y84.201 E3.35051
G1 X161.5 Y84.83 E3.37143
G1 X161.499 Y149.9 E5.53567
G1 X161.49 Y150.627 E5.55985
G1 X161.439 Y151.564 E5.59106
G1 X161.307 Y152.492 E5.62224
G1 X161.098 Y153.406 E5.65342
G1 X160.811 Y154.299 E5.68462
G1 X160.449 Y155.165 E5.71584
G1 X160.015 Y155.996 E5.74702
G1 X159.511 Y156.787 E5.77822
G1 X158.942 Y157.532 E5.8094
G1 X158.311 Y158.227 E5.84062
G1 X157.624 Y158.865 E5.8718
G1 X156.885 Y159.442 E5.90299
G1 X156.099 Y159.954 E5.93418
G1 X155.273 Y160.397 E5.96536
G1 X154.411 Y160.769 E5.99659
G1 X153.522 Y161.065 E6.02775
G1 X152.61 Y161.285 E6.05895
G1 X151.683 Y161.426 E6.09014
G1 X150.799 Y161.487 E6.11961
G1 X150.17 Y161.5 E6.14054
G1 X85.065 Y161.499 E8.30594
G1 X84.367 Y161.49 E8.32916
G1 X83.431 Y161.438 E8.36033
G1 X82.502 Y161.306 E8.39154
G1 X81.588 Y161.096 E8.42274
G1 X80.695 Y160.809 E8.45393
G1 X79.83 Y160.446 E8.48513
G1 X78.999 Y160.012 E8.51632
G1 X78.208 Y159.508 E8.54751
G1 X77.463 Y158.938 E8.57871
G1 X76.769 Y158.307 E8.60991
G1 X76.132 Y157.62 E8.64107
G1 X75.555 Y156.88 E8.67228
G1 X75.043 Y156.094 E8.70348
G1 X74.6 Y155.267 E8.73468
G1 X74.229 Y154.406 E8.76586
G1 X73.933 Y153.516 E8.79706
G1 X73.714 Y152.604 E8.82826
G1 X73.573 Y151.677 E8.85944
G1 X73.513 Y150.788 E8.88908
G1 X73.5 Y150.158 E8.91004
G1 X73.501 Y148.078 E8.97922
G1 X73.508 Y147.6 E8.99512
G1 X73.5 Y91.235 E10.86982
G1 X73.508 Y90.598 E10.89101
G1 X73.501 Y85.025 E11.07637
G0 F6000 X73.901 Y85.031
G1 F1200 X73.91 Y84.366 E11.09849
G1 X73.962 Y83.446 E11.12914
G1 X74.094 Y82.535 E11.15976
G1 X74.305 Y81.639 E11.19037
G1 X74.592 Y80.764 E11.221
G1 X74.955 Y79.918 E11.25162
G1 X75.389 Y79.106 E11.28224
G1 X75.892 Y78.335 E11.31286
G1 X76.461 Y77.611 E11.34349
G1 X77.089 Y76.939 E11.37408
G1 X77.774 Y76.323 E11.40472
G1 X78.51 Y75.77 E11.43534
G1 X79.291 Y75.282 E11.46597
G1 X80.111 Y74.864 E11.49658
G1 X80.965 Y74.519 E11.52722
G1 X81.845 Y74.249 E11.55783
G1 X82.745 Y74.057 E11.58844
G1 X83.659 Y73.943 E11.61908
G1 X84.212 Y73.913 E11.63749
G1 X84.83 Y73.9 E11.65805
G1 X149.793 Y73.9 E13.81873
G1 X150.643 Y73.911 E13.84701
G1 X151.562 Y73.964 E13.87762
G1 X152.473 Y74.097 E13.90824
G1 X153.369 Y74.308 E13.93886
G1 X154.243 Y74.596 E13.96947
G1 X155.09 Y74.959 E14.00012
G1 X155.901 Y75.394 E14.03073
G1 X156.671 Y75.898 E14.06133
G1 X157.395 Y76.467 E14.09196
G1 X158.067 Y77.097 E14.1226
G1 X158.682 Y77.782 E14.15322
G1 X159.235 Y78.518 E14.18384
G1 X159.722 Y79.299 E14.21445
G1 X160.139 Y80.12 E14.24508
G1 X160.484 Y80.974 E14.27571
G1 X160.753 Y81.854 E14.30632
G1 X160.945 Y82.755 E14.33696
G1 X161.058 Y83.668 E14.36755
G1 X161.096 Y84.532 E14.39632
G1 X161.099 Y149.895 E16.5703
G1 X161.09 Y150.622 E16.59448
G1 X161.039 Y151.541 E16.6251
G1 X160.908 Y152.453 E16.65574
G1 X160.698 Y153.349 E16.68635
G1 X160.412 Y154.224 E16.71697
G1 X160.051 Y155.071 E16.74759
G1 X159.617 Y155.883 E16.77821
G1 X159.115 Y156.655 E16.80884
G1 X158.547 Y157.38 E16.83947
G1 X157.919 Y158.053 E16.87009
G1 X157.235 Y158.669 E16.90071
G1 X156.5 Y159.223 E16.93132
G1 X155.72 Y159.712 E16.96194
G1 X154.9 Y160.131 E16.99257
G1 X154.047 Y160.477 E17.02318
G1 X153.167 Y160.748 E17.05381
G1 X152.267 Y160.941 E17.08442
G1 X151.353 Y161.056 E17.11506
G1 X150.788 Y161.087 E17.13388
G1 X150.17 Y161.1 E17.15444
G1 X85.07 Y161.099 E19.31968
G1 X84.372 Y161.09 E19.34289
G1 X83.453 Y161.038 E19.37351
G1 X82.542 Y160.907 E19.40412
G1 X81.646 Y160.697 E19.43473
G1 X80.771 Y160.41 E19.46536
G1 X79.924 Y160.048 E19.49599
G1 X79.112 Y159.614 E19.52662
G1 X78.341 Y159.112 E19.55722
G1 X77.616 Y158.544 E19.58785
G1 X76.943 Y157.915 E19.61849
G1 X76.328 Y157.231 E19.64908
G1 X75.774 Y156.496 E19.67969
G1 X75.286 Y155.715 E19.71032
G1 X74.867 Y154.895 E19.74095
G1 X74.521 Y154.042 E19.77157
G1 X74.251 Y153.162 E19.80218
G1 X74.058 Y152.261 E19.83283
G1 X73.944 Y151.348 E19.86343
G1 X73.913 Y150.777 E19.88245
G1 X73.9 Y150.158 E19.90304
G1 X73.901 Y148.083 E19.97206
G1 X73.908 Y147.604 E19.98799
G1 X73.9 Y91.235 E21.86283
G1 X73.908 Y90.603 E21.88385
G1 X73.901 Y85.031 E22.06918
G0 F6000 X74.301 Y85.036
G1 F1200 X74.31 Y84.371 E22.0913
G1 X74.362 Y83.469 E22.12135
G1 X74.494 Y82.576 E22.15137
G1 X74.704 Y81.698 E22.1814
G1 X74.991 Y80.841 E22.21146
G1 X75.353 Y80.014 E22.24149
G1 X75.786 Y79.222 E22.27151
G1 X76.288 Y78.471 E22.30155
G1 X76.855 Y77.767 E22.33162
G1 X77.481 Y77.117 E22.36163
G1 X78.162 Y76.524 E22.39167
G1 X78.894 Y75.994 E22.42173
G1 X79.669 Y75.531 E22.45175
G1 X80.482 Y75.138 E22.48179
G1 X81.327 Y74.818 E22.51184
G1 X82.196 Y74.575 E22.54185
G1 X83.084 Y74.409 E22.5719
G1 X84.223 Y74.313 E22.60991
G1 X84.83 Y74.3 E22.63011
G1 X149.793 Y74.3 E24.79079
G1 X150.637 Y74.311 E24.81886
G1 X151.539 Y74.364 E24.84891
G1 X152.432 Y74.496 E24.87894
G1 X153.31 Y74.707 E24.90897
G1 X154.166 Y74.995 E24.93901
G1 X154.993 Y75.357 E24.96903
G1 X155.785 Y75.792 E24.99909
G1 X156.536 Y76.294 E25.02913
G1 X157.239 Y76.861 E25.05917
G1 X157.889 Y77.488 E25.08921
G1 X158.481 Y78.17 E25.11925
G1 X159.011 Y78.901 E25.14928
G1 X159.473 Y79.677 E25.17932
G1 X159.866 Y80.49 E25.20935
G1 X160.184 Y81.335 E25.23938
G1 X160.427 Y82.205 E25.26942
G1 X160.592 Y83.093 E25.29946
G1 X160.687 Y84.223 E25.33718
G1 X160.7 Y84.83 E25.35737
G1 X160.699 Y149.89 E27.52128
G1 X160.69 Y150.617 E27.54546
G1 X160.639 Y151.519 E27.57551
G1 X160.508 Y152.413 E27.60556
G1 X160.299 Y153.291 E27.63558
G1 X160.013 Y154.148 E27.66563
G1 X159.652 Y154.976 E27.69567
G1 X159.22 Y155.768 E27.72568
G1 X158.719 Y156.52 E27.75573
G1 X158.153 Y157.224 E27.78578
G1 X157.528 Y157.875 E27.81579
G1 X156.847 Y158.469 E27.84585
G1 X156.116 Y159 E27.8759
G1 X155.342 Y159.464 E27.90591
G1 X154.529 Y159.858 E27.93596
G1 X153.685 Y160.178 E27.96598
G1 X152.815 Y160.423 E27.99605
G1 X151.928 Y160.589 E28.02606
G1 X150.777 Y160.687 E28.06448
G1 X150.17 Y160.7 E28.08467
G1 X85.075 Y160.699 E30.24974
G1 X84.377 Y160.69 E30.27296
G1 X83.476 Y160.639 E30.30298
G1 X82.582 Y160.507 E30.33303
G1 X81.704 Y160.298 E30.36305
G1 X80.847 Y160.011 E30.39311
G1 X80.02 Y159.65 E30.42312
G1 X79.227 Y159.217 E30.45317
G1 X78.476 Y158.716 E30.4832
G1 X77.772 Y158.15 E30.51324
G1 X77.121 Y157.524 E30.54328
G1 X76.528 Y156.843 E30.57332
G1 X75.998 Y156.112 E30.60335
G1 X75.534 Y155.337 E30.63339
G1 X75.14 Y154.524 E30.66344
G1 X74.82 Y153.68 E30.69346
G1 X74.576 Y152.81 E30.72351
G1 X74.41 Y151.922 E30.75356
G1 X74.313 Y150.767 E30.79211
G1 X74.3 Y150.158 E30.81237
G1 X74.301 Y148.089 E30.88119
G1 X74.308 Y147.609 E30.89715
G1 X74.3 Y91.235 E32.77216
G1 X74.308 Y90.608 E32.79302
G1 X74.301 Y85.036 E32.97834
G1 F2700 E27.97834
;MESH:3ZCuBk3JpDe (1).stl
G0 F6000 X83.847 Y145.151
G0 X84.924 Y146.838
G0 X84.924 Y147.927
G0 X85.08 Y149.92
G1 F2700 E32.97834
G0 F6000 X84.701 Y150.3
;TYPE:WALL-OUTER
G1 F1200 X150.3 Y150.3 E35.16017
G1 X150.3 Y84.7 E37.34204
G1 X84.701 Y84.701 E39.52387
G1 X84.701 Y85.999 E39.56704
G1 X84.701 Y87.297 E39.61021
G1 X89.502 Y87.297 E39.7699
G1 X89.662 Y87.376 E39.77583
G1 X89.702 Y87.497 E39.78007
G1 X89.701 Y90.528 E39.88088
G1 X89.618 Y90.667 E39.88627
G1 X89.502 Y90.703 E39.8903
G1 X84.7 Y90.703 E40.05002
G1 X84.7 Y144.298 E41.8326
G1 X89.502 Y144.298 E41.99231
G1 X89.655 Y144.368 E41.99791
G1 X89.702 Y144.498 E42.00251
G1 X89.702 Y147.503 E42.10245
G1 X89.662 Y147.624 E42.10669
G1 X89.502 Y147.703 E42.11263
G1 X84.701 Y147.704 E42.27231
G1 X84.701 Y150.3 E42.35865
G0 F6000 X85.101 Y149.9
;TYPE:WALL-INNER
G1 F1200 X149.9 Y149.9 E44.51387
G1 X149.9 Y85.1 E46.66913
G1 X85.101 Y85.101 E48.82436
G1 X85.101 Y85.999 E48.85422
G1 X85.101 Y86.897 E48.88409
G1 X89.502 Y86.897 E49.03047
G1 X89.785 Y86.967 E49.04016
G1 X89.982 Y87.136 E49.0488
G1 X90.079 Y87.328 E49.05595
G1 X90.102 Y87.497 E49.06162
G1 X90.102 Y90.503 E49.1616
G1 X90.035 Y90.78 E49.17108
G1 X89.848 Y90.994 E49.18054
G1 X89.588 Y91.097 E49.18984
G1 X89.502 Y91.103 E49.1927
G1 X85.1 Y91.103 E49.33912
G1 X85.1 Y143.898 E51.09508
G1 X89.502 Y143.898 E51.2415
G1 X89.771 Y143.961 E51.25068
G1 X89.978 Y144.131 E51.25959
G1 X90.087 Y144.362 E51.26809
G1 X90.102 Y144.498 E51.27264
G1 X90.102 Y147.503 E51.37259
G1 X90.078 Y147.672 E51.37826
G1 X89.982 Y147.864 E51.3854
G1 X89.785 Y148.033 E51.39404
G1 X89.502 Y148.103 E51.40373
G1 X85.101 Y148.104 E51.55011
G1 X85.101 Y149.9 E51.60985
G0 F6000 X85.101 Y149.89
G0 X85.273 Y148.276
G0 X89.497 Y148.203
G0 X89.497 Y148.463
;TYPE:SKIN
G1 F1200 X85.461 Y148.464 E51.74408
G1 X85.461 Y149.54 E51.77987
G1 X149.54 Y149.54 E53.91115
G1 X149.54 Y85.46 E56.04246
G1 X85.461 Y85.461 E58.17373
G1 X85.461 Y86.537 E58.20952
G1 X89.497 Y86.537 E58.34376
G1 X89.908 Y86.631 E58.35778
G1 X90.24 Y86.886 E58.37171
G1 X90.412 Y87.194 E58.38344
G1 X90.461 Y87.475 E58.39293
G1 X90.457 Y90.597 E58.49676
G1 X90.37 Y90.911 E58.5076
G1 X90.167 Y91.192 E58.51913
G1 X89.885 Y91.382 E58.53044
G1 X89.534 Y91.46 E58.5424
G1 X89.497 Y91.463 E58.54364
G1 X85.46 Y91.463 E58.67791
G1 X85.46 Y143.538 E60.40993
G1 X89.499 Y143.538 E60.54427
G1 X89.816 Y143.593 E60.55497
G1 X90.113 Y143.759 E60.56628
G1 X90.336 Y144.026 E60.57785
G1 X90.449 Y144.346 E60.58914
G1 X90.457 Y144.404 E60.59109
G1 X90.461 Y147.524 E60.69486
G1 X90.411 Y147.805 E60.70435
G1 X90.288 Y148.051 E60.7135
G1 X89.992 Y148.326 E60.72694
G1 X89.545 Y148.458 E60.74244
G1 X89.497 Y148.463 E60.74405
G0 F6000 X89.497 Y148.203
G0 X85.273 Y148.276
G0 X85.273 Y149.728
G0 X85.982 Y149.8
G0 X85.982 Y149.338
G1 F1200 X85.661 Y149.017 E60.75914
G0 F6000 X85.871 Y148.662
G1 F1200 X86.547 Y149.338 E60.79094
G0 F6000 X87.113 Y149.338
G1 F1200 X86.436 Y148.662 E60.82276
G0 F6000 X87.001 Y148.661
G1 F1200 X87.679 Y149.338 E60.85463
G0 F6000 X88.244 Y149.338
G1 F1200 X87.566 Y148.66 E60.88652
G0 F6000 X88.13 Y148.659
G1 F1200 X88.81 Y149.338 E60.91848
G0 F6000 X89.376 Y149.338
G1 F1200 X88.695 Y148.658 E60.95049
G0 F6000 X89.26 Y148.657
G1 F1200 X89.941 Y149.338 E60.98252
G0 F6000 X90.507 Y149.338
G1 F1200 X89.775 Y148.606 E61.01695
G0 F6000 X90.17 Y148.435
G1 F1200 X91.073 Y149.338 E61.05943
G0 F6000 X91.638 Y149.338
G1 F1200 X90.441 Y148.141 E61.11573
G0 F6000 X90.617 Y147.752
G1 F1200 X92.204 Y149.338 E61.19036
G0 F6000 X92.77 Y149.338
G1 F1200 X90.658 Y147.226 E61.2897
G0 F6000 X90.658 Y146.661
G1 F1200 X93.335 Y149.338 E61.41562
G0 F6000 X93.901 Y149.338
G1 F1200 X90.658 Y146.095 E61.56816
G0 F6000 X90.657 Y145.528
G1 F1200 X94.467 Y149.338 E61.74737
G0 F6000 X95.033 Y149.338
G1 F1200 X90.657 Y144.963 E61.95318
G0 F6000 X90.655 Y144.395
G1 F1200 X95.598 Y149.338 E62.18568
G0 F6000 X96.164 Y149.338
G1 F1200 X85.66 Y138.834 E62.67976
G0 F6000 X85.66 Y138.269
G1 F1200 X96.73 Y149.338 E63.20043
G0 F6000 X97.295 Y149.338
G1 F1200 X85.66 Y137.703 E63.74771
G0 F6000 X85.66 Y137.137
G1 F1200 X97.861 Y149.338 E64.3216
G0 F6000 X98.427 Y149.338
G1 F1200 X85.66 Y136.572 E64.9221
G0 F6000 X85.66 Y136.006
G1 F1200 X98.992 Y149.338 E65.5492
G0 F6000 X99.558 Y149.338
G1 F1200 X85.66 Y135.44 E66.20292
G0 F6000 X85.66 Y134.874
G1 F1200 X100.124 Y149.338 E66.88326
G0 F6000 X100.689 Y149.338
G1 F1200 X85.66 Y134.309 E67.59018
G0 F6000 X85.66 Y133.743
G1 F1200 X101.255 Y149.338 E68.32372
G0 F6000 X101.821 Y149.338
G1 F1200 X85.66 Y133.177 E69.08388
G0 F6000 X85.66 Y132.612
G1 F1200 X102.386 Y149.338 E69.87062
G0 F6000 X102.952 Y149.338
G1 F1200 X85.66 Y132.046 E70.68398
G0 F6000 X85.66 Y131.48
G1 F1200 X103.518 Y149.338 E71.52397
G0 F6000 X104.083 Y149.338
G1 F1200 X85.66 Y130.915 E72.39053
G0 F6000 X85.66 Y130.349
G1 F1200 X104.649 Y149.338 E73.28372
G0 F6000 X105.215 Y149.338
G1 F1200 X85.66 Y129.783 E74.20352
G0 F6000 X85.66 Y129.218
G1 F1200 X105.781 Y149.338 E75.14993
G0 F6000 X106.346 Y149.338
G1 F1200 X85.66 Y128.652 E76.12294
G0 F6000 X85.66 Y128.086
G1 F1200 X106.912 Y149.338 E77.12256
G0 F6000 X107.478 Y149.338
G1 F1200 X85.66 Y127.521 E78.14879
G0 F6000 X85.66 Y126.955
G1 F1200 X108.043 Y149.338 E79.20162
G0 F6000 X108.609 Y149.338
G1 F1200 X85.66 Y126.389 E80.28107
G0 F6000 X85.66 Y125.823
G1 F1200 X109.175 Y149.338 E81.38714
G0 F6000 X109.74 Y149.338
G1 F1200 X85.66 Y125.258 E82.51979
G0 F6000 X85.66 Y124.692
G1 F1200 X110.306 Y149.338 E83.67907
G0 F6000 X110.872 Y149.338
G1 F1200 X85.66 Y124.126 E84.86496
G0 F6000 X85.66 Y123.561
G1 F1200 X111.437 Y149.338 E86.07743
G0 F6000 X112.003 Y149.338
G1 F1200 X85.66 Y122.995 E87.31653
G0 F6000 X85.66 Y122.429
G1 F1200 X112.569 Y149.338 E88.58224
G0 F6000 X113.134 Y149.338
G1 F1200 X85.66 Y121.864 E89.87454
G0 F6000 X85.66 Y121.298
G1 F1200 X113.7 Y149.338 E91.19345
G0 F6000 X114.266 Y149.338
G1 F1200 X85.66 Y120.732 E92.53899
G0 F6000 X85.66 Y120.167
G1 F1200 X114.832 Y149.338 E93.91113
G0 F6000 X115.397 Y149.338
G1 F1200 X85.66 Y119.601 E95.30987
G0 F6000 X85.66 Y119.035
G1 F1200 X115.963 Y149.338 E96.73523
G0 F6000 X116.529 Y149.338
G1 F1200 X85.66 Y118.47 E98.18719
G0 F6000 X85.66 Y117.904
G1 F1200 X117.094 Y149.338 E99.66574
G0 F6000 X117.66 Y149.338
G1 F1200 X85.66 Y117.338 E101.17093
G0 F6000 X85.66 Y116.773
G1 F1200 X118.226 Y149.338 E102.70271
G0 F6000 X118.791 Y149.338
G1 F1200 X85.66 Y116.207 E104.26109
G0 F6000 X85.66 Y115.641
G1 F1200 X119.357 Y149.338 E105.84609
G0 F6000 X119.923 Y149.338
G1 F1200 X85.66 Y115.075 E107.45772
G0 F6000 X85.66 Y114.51
G1 F1200 X120.488 Y149.338 E109.09592
G0 F6000 X121.054 Y149.338
G1 F1200 X85.66 Y113.944 E110.76075
G0 F6000 X85.66 Y113.378
G1 F1200 X121.62 Y149.338 E112.45219
G0 F6000 X122.185 Y149.338
G1 F1200 X85.66 Y112.813 E114.17022
G0 F6000 X85.66 Y112.247
G1 F1200 X122.751 Y149.338 E115.91487
G0 F6000 X123.317 Y149.338
G1 F1200 X85.66 Y111.681 E117.68613
G0 F6000 X85.66 Y111.116
G1 F1200 X123.882 Y149.338 E119.48398
G0 F6000 X124.448 Y149.338
G1 F1200 X85.66 Y110.55 E121.30845
G0 F6000 X85.66 Y109.984
G1 F1200 X125.014 Y149.338 E123.15954
G0 F6000 X125.58 Y149.338
G1 F1200 X85.66 Y109.419 E125.03723
G0 F6000 X85.66 Y108.853
G1 F1200 X126.145 Y149.338 E126.94152
G0 F6000 X126.711 Y149.338
G1 F1200 X85.66 Y108.287 E128.87244
G0 F6000 X85.66 Y107.722
G1 F1200 X127.277 Y149.338 E130.82995
G0 F6000 X127.842 Y149.338
G1 F1200 X85.66 Y107.156 E132.81406
G0 F6000 X85.66 Y106.59
G1 F1200 X128.408 Y149.338 E134.82479
